; generated by PrusaSlicer 2.9.0 on 2025-01-09 at 02:55:08 UTC

; 

; external perimeters extrusion width = 0.42mm
; perimeters extrusion width = 0.44mm
; infill extrusion width = 0.44mm
; solid infill extrusion width = 0.44mm
; top infill extrusion width = 0.40mm
; first layer extrusion width = 0.42mm

M201 X500 Y500 Z100 E5000 ; sets maximum accelerations, mm/sec^2
M203 X500 Y500 Z10 E60 ; sets maximum feedrates, mm / sec
M204 S500 T1000 ; sets acceleration (S) and retract acceleration (R), mm/sec^2
M205 X8.00 Y8.00 Z0.40 E5.00 ; sets the jerk limits, mm/sec
M205 S0 T0 ; sets the minimum extruding and travel feed rate, mm/sec

; printing object 4thtry-plateright.stl id:0 copy 0
; stop printing object 4thtry-plateright.stl id:0 copy 0

;TYPE:Custom
G90 ; use absolute coordinates
M83 ; extruder relative mode
M104 S150 ; set temporary nozzle temp to prevent oozing during homing
M140 S60 ; set final bed temp
G4 S30 ; allow partial nozzle warmup
G28 ; home all axis
G1 Z50 F240
G1 X2.0 Y10 F3000
M104 S210 ; set final nozzle temp
M190 S60 ; wait for bed temp to stabilize
M109 S210 ; wait for nozzle temp to stabilize
G1 Z0.28 F240
G92 E0
G1 X2.0 Y140 E10 F1500 ; prime the nozzle
G1 X2.3 Y140 F5000
G92 E0
G1 X2.3 Y10 E10 F1200 ; prime the nozzle
G92 E0
G21 ; set units to millimeters
G90 ; use absolute coordinates
M83 ; use relative distances for extrusion
; Filament gcode
M107
;LAYER_CHANGE
;Z:0.2
;HEIGHT:0.2
G1 E-5 F3600
G1 Z.2 F9000
G1 X54.357 Y44.395
G1 Z.2
G1 E5 F2400
M204 S500
;TYPE:Skirt/Brim
;WIDTH:0.42
G1 F1200
G1 X63.271 Y33.481 E.44183
G1 X64.546 Y32.541 E.04967
G1 X66.709 Y32.46 E.06787
G1 X191.013 Y72.114 E4.09098
G1 X192.356 Y72.955 E.04968
G1 X193.218 Y74.851 E.0653
G1 X195.474 Y98.852 E.75585
G1 X195.518 Y131.657 E1.02858
G1 X195.447 Y156.816 E.78885
G1 X193.078 Y178.079 E.67081
G1 X192.515 Y179.561 E.04971
G1 X190.933 Y180.743 E.06192
G1 X150.65 Y194.411 E1.33377
G1 X150.091 Y194.546 E.01803
G1 X122.194 Y198.657 E.88414
G1 X100.761 Y198.573 E.67202
G1 X57.087 Y193.479 E1.37865
G1 X55.608 Y192.911 E.04968
G1 X54.435 Y191.333 E.06165
G1 X47.234 Y169.899 E.70896
G1 X46.18 Y163.783 E.19459
G1 X35.506 Y77.816 E2.71613
G1 X35.826 Y75.982 E.05837
G1 X47.546 Y52.851 E.81304
G1 X47.921 Y52.276 E.02152
G1 X54.319 Y44.441 E.31716
G1 E-3.5 F3600
;WIPE_START
G1 F7200
G1 X54.357 Y44.395 E-.02834
G1 X56.317 Y41.995 E-1.47166
;WIPE_END
; printing object 4thtry-plateright.stl id:0 copy 0
G1 X110.698 Y73.953 F9000
G1 E5 F2400
;TYPE:Perimeter
;WIDTH:0.419999
G1 F1200
G1 X110.923 Y73.539 E.01477
G1 X111.412 Y72.918 E.02478
G1 X111.823 Y72.538 E.01755
G1 X112.491 Y72.107 E.02493
G1 X112.999 Y71.882 E.01742
G1 X113.773 Y71.69 E.025
G1 X114.325 Y71.642 E.01737
G1 X114.848 Y71.668 E.01642
G1 X115.625 Y71.835 E.02492
G1 X116.143 Y72.036 E.01742
G1 X116.827 Y72.447 E.02502
G1 X117.442 Y73.01 E.02614
G1 X117.883 Y73.596 E.023
G1 X118.242 Y74.331 E.02565
G1 X118.45 Y75.142 E.02625
G1 X118.487 Y75.975 E.02614
G1 X118.384 Y76.701 E.02299
G1 X118.119 Y77.474 E.02562
G1 X117.693 Y78.195 E.02626
G1 X117.13 Y78.81 E.02614
G1 X116.544 Y79.25 E.02298
G1 X115.81 Y79.61 E.02563
G1 X114.999 Y79.818 E.02625
G1 X114.336 Y79.851 E.02081
G1 X113.995 Y79.843 E.01069
G1 X113.44 Y79.752 E.01763
G1 X112.667 Y79.487 E.02562
G1 X111.946 Y79.061 E.02626
G1 X111.331 Y78.498 E.02614
G1 X111.219 Y78.369 E.00536
G1 X110.89 Y77.912 E.01766
G1 X110.531 Y77.178 E.02562
G1 X110.322 Y76.367 E.02626
G1 X110.286 Y75.534 E.02614
G1 X110.388 Y74.808 E.02299
G1 X110.653 Y74.034 E.02565
G1 X110.669 Y74.006 E.00101
G1 X110.669 Y74.006 F9000
G1 X111.035 Y74.116
G1 F1200
G1 X111.3 Y73.653 E.01673
G1 X111.704 Y73.155 E.02011
G1 X112.146 Y72.767 E.01844
G1 X112.691 Y72.427 E.02014
G1 X113.198 Y72.212 E.01727
G1 X113.858 Y72.058 E.02125
G1 X114.423 Y72.018 E.01776
G1 X114.914 Y72.057 E.01544
G1 X115.54 Y72.202 E.02015
G1 X116.082 Y72.427 E.0184
G1 X116.627 Y72.767 E.02014
G1 X117.181 Y73.282 E.02372
G1 X117.577 Y73.817 E.02087
G1 X117.9 Y74.489 E.02338
G1 X118.083 Y75.227 E.02384
G1 X118.11 Y75.982 E.02369
G1 X118.012 Y76.64 E.02086
G1 X117.765 Y77.344 E.02339
G1 X117.373 Y77.995 E.02383
G1 X116.858 Y78.548 E.02369
G1 X116.324 Y78.944 E.02084
G1 X115.651 Y79.268 E.02342
G1 X114.914 Y79.451 E.02381
G1 X114.056 Y79.471 E.02691
G1 X113.496 Y79.379 E.01779
G1 X112.796 Y79.133 E.02326
G1 X112.146 Y78.741 E.0238
G1 X111.525 Y78.148 E.02692
G1 X111.193 Y77.687 E.01781
G1 X110.873 Y77.019 E.02322
G1 X110.69 Y76.282 E.02381
G1 X110.663 Y75.526 E.02372
G1 X110.761 Y74.868 E.02086
G1 X111.006 Y74.168 E.02325
G1 X111.371 Y74.277 F9000
;TYPE:External perimeter
G1 F1200
G1 X111.593 Y73.891 E.01396
G1 X111.997 Y73.393 E.02011
G1 X112.345 Y73.087 E.01453
G1 X112.89 Y72.747 E.02014
G1 X113.317 Y72.57 E.01449
G1 X113.943 Y72.425 E.02015
G1 X114.399 Y72.394 E.01433
G1 X114.829 Y72.425 E.01352
G1 X115.455 Y72.57 E.02015
G1 X115.882 Y72.747 E.01449
G1 X116.428 Y73.087 E.02017
G1 X116.919 Y73.554 E.02125
G1 X117.27 Y74.037 E.01872
G1 X117.558 Y74.648 E.02118
G1 X117.716 Y75.311 E.02137
G1 X117.733 Y75.99 E.0213
G1 X117.64 Y76.579 E.0187
G1 X117.411 Y77.215 E.02119
G1 X117.054 Y77.795 E.02135
G1 X116.586 Y78.287 E.02129
G1 X116.104 Y78.638 E.0187
G1 X115.492 Y78.926 E.02121
G1 X114.829 Y79.083 E.02136
G1 X114.117 Y79.098 E.02233
G1 X113.558 Y79.007 E.01776
G1 X112.926 Y78.779 E.02107
G1 X112.345 Y78.421 E.0214
G1 X111.831 Y77.928 E.02233
G1 X111.501 Y77.47 E.0177
G1 X111.215 Y76.86 E.02112
G1 X111.057 Y76.197 E.02137
G1 X111.04 Y75.519 E.02126
G1 X111.133 Y74.929 E.01873
G1 X111.348 Y74.332 E.0199
G1 E-3.5 F3600
;WIPE_START
G1 F7200
G1 X111.371 Y74.277 E-.02832
G1 X111.593 Y73.891 E-.21151
G1 X111.997 Y73.393 E-.3046
G1 X112.345 Y73.087 E-.22012
G1 X112.89 Y72.747 E-.30512
G1 X113.317 Y72.57 E-.21956
G1 X113.749 Y72.47 E-.21077
;WIPE_END
G1 X60.832 Y102.61 F9000
G1 E5 F2400
;TYPE:Perimeter
G1 F1200
G1 X61.151 Y103.262 E.02276
G1 X61.359 Y104.073 E.02625
G1 X61.396 Y104.906 E.02614
G1 X61.293 Y105.632 E.02299
G1 X61.028 Y106.405 E.02562
G1 X60.602 Y107.126 E.02626
G1 X60.039 Y107.741 E.02614
G1 X59.453 Y108.182 E.023
G1 X58.719 Y108.541 E.02562
G1 X57.908 Y108.749 E.02625
G1 X57.075 Y108.786 E.02614
G1 X56.349 Y108.683 E.02299
G1 X55.575 Y108.418 E.02565
G1 X54.855 Y107.992 E.02623
G1 X54.24 Y107.429 E.02614
G1 X53.799 Y106.843 E.023
G1 X53.439 Y106.109 E.02563
G1 X53.231 Y105.298 E.02625
G1 X53.195 Y104.465 E.02614
G1 X53.297 Y103.739 E.02299
G1 X53.562 Y102.966 E.02562
G1 X53.832 Y102.47 E.01771
G1 X54.32 Y101.849 E.02476
G1 X54.732 Y101.47 E.01755
G1 X55.4 Y101.038 E.02494
G1 X55.908 Y100.814 E.01741
G1 X56.682 Y100.621 E.02501
G1 X57.234 Y100.573 E.01737
G1 X57.757 Y100.599 E.01642
G1 X58.534 Y100.766 E.02492
G1 X59.052 Y100.967 E.01742
G1 X59.736 Y101.379 E.02504
G1 X60.211 Y101.807 E.02005
G1 X60.463 Y102.071 E.01144
G1 X60.791 Y102.528 E.01764
G1 X60.805 Y102.556 E.00098
G1 X60.805 Y102.556 F9000
G1 X60.509 Y102.797
G1 F1200
G1 X60.809 Y103.421 E.02171
G1 X60.992 Y104.158 E.02381
G1 X61.019 Y104.913 E.02369
G1 X60.921 Y105.571 E.02086
G1 X60.674 Y106.276 E.02342
G1 X60.282 Y106.926 E.0238
G1 X59.767 Y107.48 E.02372
G1 X59.233 Y107.875 E.02083
G1 X58.56 Y108.199 E.02342
G1 X57.823 Y108.382 E.02381
G1 X57.067 Y108.409 E.02372
G1 X56.41 Y108.311 E.02083
G1 X55.705 Y108.064 E.02342
G1 X55.054 Y107.672 E.02383
G1 X54.501 Y107.157 E.02369
G1 X54.105 Y106.623 E.02084
G1 X53.781 Y105.95 E.02342
G1 X53.599 Y105.213 E.0238
G1 X53.572 Y104.457 E.02372
G1 X53.669 Y103.8 E.02082
G1 X53.916 Y103.095 E.02342
G1 X54.209 Y102.585 E.01844
G1 X54.613 Y102.086 E.02013
G1 X55.054 Y101.698 E.01842
G1 X55.599 Y101.358 E.02014
G1 X56.141 Y101.134 E.01839
G1 X56.767 Y100.989 E.02015
G1 X57.292 Y100.948 E.01651
G1 X57.823 Y100.989 E.0167
G1 X58.449 Y101.133 E.02014
G1 X58.939 Y101.329 E.01655
G1 X59.536 Y101.698 E.02201
G1 X60.157 Y102.291 E.02692
G1 X60.482 Y102.744 E.01748
G1 X60.482 Y102.744 F9000
G1 X60.187 Y102.985
;TYPE:External perimeter
G1 F1200
G1 X60.467 Y103.58 E.02062
G1 X60.624 Y104.243 E.02136
G1 X60.642 Y104.921 E.02127
G1 X60.549 Y105.51 E.0187
G1 X60.32 Y106.146 E.02119
G1 X59.962 Y106.727 E.0214
G1 X59.495 Y107.218 E.02125
G1 X59.013 Y107.569 E.0187
G1 X58.401 Y107.857 E.02121
G1 X57.738 Y108.015 E.02137
G1 X57.06 Y108.032 E.02126
G1 X56.47 Y107.939 E.01873
G1 X55.834 Y107.71 E.02119
G1 X55.254 Y107.352 E.02137
G1 X54.762 Y106.885 E.02127
G1 X54.411 Y106.403 E.0187
G1 X54.123 Y105.791 E.02121
G1 X53.966 Y105.128 E.02136
G1 X53.949 Y104.45 E.02126
G1 X54.042 Y103.86 E.01873
G1 X54.27 Y103.224 E.02118
G1 X54.502 Y102.822 E.01455
G1 X54.906 Y102.324 E.02011
G1 X55.254 Y102.018 E.01453
G1 X55.799 Y101.678 E.02014
G1 X56.226 Y101.501 E.01449
G1 X56.852 Y101.356 E.02015
G1 X57.308 Y101.326 E.01433
G1 X57.738 Y101.356 E.01352
G1 X58.364 Y101.501 E.02015
G1 X58.791 Y101.678 E.01449
G1 X59.336 Y102.018 E.02014
G1 X59.828 Y102.485 E.02127
G1 X60.155 Y102.935 E.01744
G1 E-3.5 F3600
;WIPE_START
G1 F7200
G1 X60.187 Y102.985 E-.0282
G1 X60.467 Y103.58 E-.31236
G1 X60.624 Y104.243 E-.32363
G1 X60.642 Y104.921 E-.32216
G1 X60.549 Y105.51 E-.28324
G1 X60.385 Y105.967 E-.23041
;WIPE_END
G1 X58.353 Y63.048 F9000
G1 E5 F2400
;TYPE:Perimeter
G1 F1200
G1 X58.132 Y63.057 E.00694
G1 X57.406 Y62.954 E.02299
G1 X56.633 Y62.69 E.02561
G1 X55.912 Y62.263 E.02627
G1 X55.297 Y61.7 E.02614
G1 X54.856 Y61.114 E.023
G1 X54.497 Y60.38 E.02562
G1 X54.289 Y59.569 E.02625
G1 X54.252 Y58.736 E.02614
G1 X54.355 Y58.01 E.02299
G1 X54.62 Y57.237 E.02562
G1 X54.889 Y56.741 E.01769
G1 X55.378 Y56.12 E.02478
G1 X55.79 Y55.741 E.01755
G1 X56.457 Y55.309 E.02492
G1 X56.965 Y55.085 E.01741
G1 X57.74 Y54.893 E.02503
G1 X58.291 Y54.844 E.01734
G1 X58.965 Y54.892 E.02119
G1 X59.591 Y55.037 E.02015
G1 X60.11 Y55.238 E.01745
G1 X60.793 Y55.65 E.02501
G1 X61.408 Y56.213 E.02614
G1 X61.849 Y56.799 E.023
G1 X62.208 Y57.533 E.02562
G1 X62.417 Y58.344 E.02626
G1 X62.453 Y59.177 E.02614
G1 X62.351 Y59.903 E.02299
G1 X62.086 Y60.676 E.02562
G1 X61.659 Y61.397 E.02627
G1 X61.096 Y62.012 E.02614
G1 X60.642 Y62.358 E.0179
G1 X60.357 Y62.542 E.01064
G1 X59.776 Y62.812 E.02009
G1 X58.965 Y63.021 E.02626
G1 X58.413 Y63.045 E.01732
G1 X58.413 Y63.045 F9000
G1 X58.353 Y62.672
G1 F1200
G1 X58.125 Y62.68 E.00715
G1 X57.467 Y62.582 E.02086
G1 X56.762 Y62.335 E.02342
G1 X56.112 Y61.943 E.0238
G1 X55.558 Y61.428 E.02372
G1 X55.163 Y60.894 E.02083
G1 X54.839 Y60.221 E.02342
G1 X54.656 Y59.484 E.02381
G1 X54.629 Y58.728 E.02372
G1 X54.727 Y58.071 E.02083
G1 X54.974 Y57.366 E.02342
G1 X55.245 Y56.885 E.01731
G1 X55.671 Y56.357 E.02127
G1 X56.112 Y55.97 E.0184
G1 X56.657 Y55.629 E.02016
G1 X57.199 Y55.405 E.01839
G1 X57.825 Y55.26 E.02015
G1 X58.39 Y55.22 E.01776
G1 X58.88 Y55.26 E.01541
G1 X59.506 Y55.405 E.02015
G1 X60.048 Y55.629 E.01839
G1 X60.594 Y55.97 E.02018
G1 X61.147 Y56.485 E.02369
G1 X61.543 Y57.019 E.02084
G1 X61.866 Y57.692 E.02341
G1 X62.049 Y58.429 E.02381
G1 X62.076 Y59.185 E.02372
G1 X61.978 Y59.842 E.02083
G1 X61.732 Y60.547 E.02341
G1 X61.34 Y61.197 E.0238
G1 X60.825 Y61.751 E.02372
G1 X60.198 Y62.2 E.02418
G1 X59.617 Y62.47 E.02009
G1 X58.88 Y62.653 E.02381
G1 X58.413 Y62.67 E.01465
G1 X58.413 Y62.67 F9000
G1 X58.353 Y62.297
;TYPE:External perimeter
G1 F1200
G1 X58.117 Y62.303 E.0074
G1 X57.528 Y62.21 E.0187
G1 X56.892 Y61.981 E.02119
G1 X56.312 Y61.624 E.02135
G1 X55.82 Y61.157 E.02127
G1 X55.469 Y60.674 E.01872
G1 X55.181 Y60.062 E.02121
G1 X55.023 Y59.399 E.02137
G1 X55.006 Y58.721 E.02126
G1 X55.099 Y58.132 E.0187
G1 X55.328 Y57.496 E.02119
G1 X55.559 Y57.093 E.01456
G1 X55.964 Y56.595 E.02013
G1 X56.312 Y56.289 E.01453
G1 X56.857 Y55.949 E.02014
G1 X57.284 Y55.772 E.01449
G1 X57.91 Y55.627 E.02015
G1 X58.365 Y55.597 E.0143
G1 X58.795 Y55.627 E.01352
G1 X59.422 Y55.772 E.02018
G1 X59.849 Y55.949 E.01449
G1 X60.394 Y56.289 E.02014
G1 X60.886 Y56.757 E.02129
G1 X61.237 Y57.239 E.0187
G1 X61.524 Y57.851 E.02119
G1 X61.682 Y58.514 E.02137
G1 X61.699 Y59.192 E.02126
G1 X61.606 Y59.781 E.0187
G1 X61.377 Y60.417 E.02119
G1 X61.02 Y60.998 E.02138
G1 X60.553 Y61.49 E.02127
G1 X60.07 Y61.841 E.01872
G1 X59.458 Y62.128 E.02119
G1 X58.795 Y62.286 E.02137
G1 X58.413 Y62.296 E.01198
G1 E-3.5 F3600
;WIPE_START
G1 F7200
G1 X58.353 Y62.297 E-.0285
G1 X58.117 Y62.303 E-.11214
G1 X57.528 Y62.21 E-.28324
G1 X56.892 Y61.981 E-.32109
G1 X56.312 Y61.624 E-.32351
G1 X55.82 Y61.157 E-.32221
G1 X55.685 Y60.971 E-.10931
;WIPE_END
G1 X57.998 Y161.263 F9000
G1 E5 F2400
;TYPE:Perimeter
G1 F1200
G1 X58.459 Y161.286 E.01447
G1 X59.237 Y161.453 E.02495
G1 X59.755 Y161.654 E.01742
G1 X60.439 Y162.066 E.02504
G1 X61.054 Y162.629 E.02614
G1 X61.494 Y163.215 E.02298
G1 X61.854 Y163.949 E.02563
G1 X62.062 Y164.76 E.02625
G1 X62.099 Y165.593 E.02614
G1 X61.996 Y166.319 E.02299
G1 X61.731 Y167.093 E.02565
G1 X61.305 Y167.813 E.02623
G1 X60.742 Y168.428 E.02614
G1 X60.156 Y168.869 E.023
G1 X59.422 Y169.228 E.02562
G1 X58.61 Y169.437 E.02629
G1 X57.777 Y169.473 E.02614
G1 X57.052 Y169.371 E.02296
G1 X56.278 Y169.106 E.02565
G1 X55.557 Y168.68 E.02626
G1 X54.942 Y168.116 E.02616
G1 X54.569 Y167.623 E.01938
G1 X54.412 Y167.377 E.00915
G1 X54.142 Y166.796 E.02009
G1 X54.079 Y166.611 E.00613
G1 X53.934 Y165.985 E.02015
G1 X53.897 Y165.152 E.02614
G1 X54 Y164.426 E.02299
G1 X54.265 Y163.653 E.02562
G1 X54.534 Y163.158 E.01766
G1 X55.023 Y162.536 E.02481
G1 X55.435 Y162.157 E.01755
G1 X56.102 Y161.725 E.02492
G1 X56.611 Y161.501 E.01744
G1 X57.385 Y161.309 E.025
G1 X57.937 Y161.26 E.01738
G1 X57.937 Y161.26 F9000
G1 X57.998 Y161.636
G1 F1200
G1 X57.999 Y161.635 E.00004
G1 X58.525 Y161.676 E.01654
G1 X59.152 Y161.821 E.02018
G1 X59.628 Y162.01 E.01606
G1 X60.239 Y162.386 E.02249
G1 X60.792 Y162.901 E.02369
G1 X61.188 Y163.435 E.02084
G1 X61.512 Y164.108 E.02342
G1 X61.695 Y164.845 E.02381
G1 X61.722 Y165.601 E.02372
G1 X61.624 Y166.258 E.02083
G1 X61.377 Y166.963 E.02342
G1 X60.985 Y167.614 E.02383
G1 X60.47 Y168.167 E.02369
G1 X59.935 Y168.563 E.02087
G1 X59.263 Y168.886 E.02338
G1 X58.525 Y169.069 E.02384
G1 X57.77 Y169.096 E.02369
G1 X57.112 Y168.999 E.02085
G1 X56.408 Y168.752 E.02339
G1 X55.757 Y168.36 E.02383
G1 X55.204 Y167.845 E.02369
G1 X54.875 Y167.403 E.01728
G1 X54.484 Y166.637 E.02697
G1 X54.446 Y166.526 E.00368
G1 X54.301 Y165.9 E.02015
G1 X54.274 Y165.145 E.02369
G1 X54.372 Y164.487 E.02086
G1 X54.619 Y163.782 E.02342
G1 X54.912 Y163.272 E.01844
G1 X55.316 Y162.774 E.02011
G1 X55.757 Y162.386 E.01842
G1 X56.302 Y162.045 E.02016
G1 X56.844 Y161.821 E.01839
G1 X57.47 Y161.676 E.02015
G1 X57.938 Y161.64 E.01472
G1 X57.938 Y161.64 F9000
G1 X57.998 Y162.014
;TYPE:External perimeter
G1 F1200
G1 X58.01 Y162.013 E.00038
G1 X58.441 Y162.043 E.01355
G1 X59.067 Y162.188 E.02015
G1 X59.494 Y162.365 E.01449
G1 X60.039 Y162.706 E.02016
G1 X60.531 Y163.173 E.02127
G1 X60.882 Y163.655 E.0187
G1 X61.17 Y164.267 E.02121
G1 X61.327 Y164.93 E.02136
G1 X61.345 Y165.608 E.02127
G1 X61.252 Y166.198 E.01873
G1 X61.023 Y166.834 E.02119
G1 X60.665 Y167.414 E.02137
G1 X60.198 Y167.906 E.02127
G1 X59.715 Y168.257 E.01872
G1 X59.104 Y168.545 E.02118
G1 X58.441 Y168.702 E.02136
G1 X57.762 Y168.719 E.0213
G1 X57.173 Y168.626 E.0187
G1 X56.537 Y168.397 E.02119
G1 X55.957 Y168.04 E.02135
G1 X55.465 Y167.573 E.02127
G1 X55.114 Y167.09 E.01872
G1 X54.813 Y166.442 E.0224
G1 X54.669 Y165.815 E.02017
G1 X54.651 Y165.137 E.02127
G1 X54.744 Y164.548 E.0187
G1 X54.973 Y163.912 E.02119
G1 X55.205 Y163.51 E.01455
G1 X55.609 Y163.011 E.02013
G1 X55.957 Y162.706 E.01451
G1 X56.502 Y162.365 E.02016
G1 X56.929 Y162.188 E.01449
G1 X57.555 Y162.044 E.02014
G1 X57.938 Y162.018 E.01204
G1 E-3.5 F3600
;WIPE_START
G1 F7200
G1 X57.998 Y162.014 E-.02856
G1 X58.01 Y162.013 E-.00572
G1 X58.441 Y162.043 E-.20522
G1 X59.067 Y162.188 E-.30522
G1 X59.494 Y162.365 E-.21956
G1 X60.039 Y162.706 E-.30537
G1 X60.531 Y163.173 E-.32221
G1 X60.665 Y163.357 E-.10814
;WIPE_END
G1 X115.32 Y186.055 F9000
G1 E5 F2400
;TYPE:Perimeter
G1 F1200
G1 X115.461 Y185.668 E.01291
G1 X115.731 Y185.172 E.01771
G1 X116.219 Y184.551 E.02476
G1 X116.631 Y184.172 E.01755
G1 X117.299 Y183.74 E.02494
G1 X117.807 Y183.516 E.01741
