; generated by PrusaSlicer 2.9.0 on 2025-01-09 at 02:54:49 UTC

; 

; external perimeters extrusion width = 0.42mm
; perimeters extrusion width = 0.44mm
; infill extrusion width = 0.44mm
; solid infill extrusion width = 0.44mm
; top infill extrusion width = 0.40mm
; first layer extrusion width = 0.42mm

M201 X500 Y500 Z100 E5000 ; sets maximum accelerations, mm/sec^2
M203 X500 Y500 Z10 E60 ; sets maximum feedrates, mm / sec
M204 S500 T1000 ; sets acceleration (S) and retract acceleration (R), mm/sec^2
M205 X8.00 Y8.00 Z0.40 E5.00 ; sets the jerk limits, mm/sec
M205 S0 T0 ; sets the minimum extruding and travel feed rate, mm/sec

; printing object 4thtry-plateleft.stl id:0 copy 0
; stop printing object 4thtry-plateleft.stl id:0 copy 0

;TYPE:Custom
G90 ; use absolute coordinates
M83 ; extruder relative mode
M104 S150 ; set temporary nozzle temp to prevent oozing during homing
M140 S60 ; set final bed temp
G4 S30 ; allow partial nozzle warmup
G28 ; home all axis
G1 Z50 F240
G1 X2.0 Y10 F3000
M104 S210 ; set final nozzle temp
M190 S60 ; wait for bed temp to stabilize
M109 S210 ; wait for nozzle temp to stabilize
G1 Z0.28 F240
G92 E0
G1 X2.0 Y140 E10 F1500 ; prime the nozzle
G1 X2.3 Y140 F5000
G92 E0
G1 X2.3 Y10 E10 F1200 ; prime the nozzle
G92 E0
G21 ; set units to millimeters
G90 ; use absolute coordinates
M83 ; use relative distances for extrusion
; Filament gcode
M107
;LAYER_CHANGE
;Z:0.2
;HEIGHT:0.2
G1 E-5 F3600
G1 Z.2 F9000
G1 X39.987 Y72.114
G1 Z.2
G1 E5 F2400
M204 S500
;TYPE:Skirt/Brim
;WIDTH:0.42
G1 F1200
G1 X164.291 Y32.46 E4.09098
G1 X165.873 Y32.369 E.04968
G1 X167.729 Y33.481 E.06784
G1 X183.079 Y52.276 E.76087
G1 X183.454 Y52.851 E.02152
G1 X195.174 Y75.982 E.81304
G1 X195.494 Y77.816 E.05837
G1 X184.797 Y163.933 E2.72089
G1 X183.645 Y170.377 E.20525
G1 X176.565 Y191.333 E.69355
G1 X175.7 Y192.661 E.04969
G1 X173.913 Y193.479 E.06162
G1 X130.239 Y198.573 E1.37865
G1 X108.806 Y198.657 E.67202
G1 X80.909 Y194.546 E.88414
G1 X80.35 Y194.411 E.01803
G1 X40.067 Y180.743 E1.33377
G1 X38.74 Y179.877 E.04968
G1 X37.922 Y178.079 E.06194
G1 X35.553 Y156.816 E.67081
G1 X35.482 Y131.657 E.78885
G1 X35.526 Y98.852 E1.02858
G1 X37.782 Y74.851 E.75585
G1 X38.318 Y73.36 E.04968
G1 X39.939 Y72.15 E.06342
G1 E-3.5 F3600
;WIPE_START
G1 F7200
G1 X39.987 Y72.114 E-.0285
G1 X42.938 Y71.172 E-1.4715
;WIPE_END
; printing object 4thtry-plateleft.stl id:0 copy 0
G1 X112.523 Y75.754 F9000
G1 E5 F2400
;TYPE:Perimeter
;WIDTH:0.419999
G1 F1200
G1 X112.513 Y75.534 E.00691
G1 X112.616 Y74.808 E.02299
G1 X112.881 Y74.034 E.02565
G1 X113.15 Y73.539 E.01766
G1 X113.639 Y72.918 E.02478
G1 X114.051 Y72.538 E.01757
G1 X114.718 Y72.107 E.0249
G1 X115.226 Y71.882 E.01742
G1 X116.001 Y71.69 E.02503
G1 X116.552 Y71.642 E.01734
G1 X117.075 Y71.668 E.01642
G1 X117.852 Y71.835 E.02492
G1 X118.37 Y72.036 E.01742
G1 X119.054 Y72.447 E.02502
G1 X119.669 Y73.01 E.02614
G1 X120.11 Y73.596 E.023
G1 X120.469 Y74.331 E.02565
G1 X120.678 Y75.142 E.02626
G1 X120.714 Y75.975 E.02614
G1 X120.612 Y76.701 E.02299
G1 X120.347 Y77.474 E.02562
G1 X119.92 Y78.195 E.02627
G1 X119.519 Y78.641 E.01881
G1 X119.228 Y78.922 E.01268
G1 X118.771 Y79.25 E.01764
G1 X118.037 Y79.61 E.02563
G1 X117.226 Y79.818 E.02625
G1 X116.393 Y79.855 E.02614
G1 X116.222 Y79.843 E.00537
G1 X115.667 Y79.752 E.01763
G1 X114.894 Y79.487 E.02562
G1 X114.173 Y79.061 E.02626
G1 X113.558 Y78.498 E.02614
G1 X113.117 Y77.912 E.023
G1 X112.758 Y77.178 E.02562
G1 X112.55 Y76.367 E.02625
G1 X112.525 Y75.814 E.01736
G1 X112.525 Y75.814 F9000
G1 X112.898 Y75.754
G1 F1200
G1 X112.89 Y75.526 E.00715
G1 X112.988 Y74.868 E.02086
G1 X113.235 Y74.164 E.02339
G1 X113.527 Y73.653 E.01845
G1 X113.932 Y73.155 E.02013
G1 X114.373 Y72.767 E.01842
G1 X114.918 Y72.427 E.02014
G1 X115.46 Y72.202 E.0184
G1 X116.086 Y72.058 E.02014
G1 X116.651 Y72.018 E.01776
G1 X117.141 Y72.057 E.01541
G1 X117.767 Y72.202 E.02015
G1 X118.309 Y72.427 E.0184
G1 X118.855 Y72.767 E.02017
G1 X119.408 Y73.282 E.02369
G1 X119.804 Y73.817 E.02087
G1 X120.127 Y74.489 E.02338
G1 X120.31 Y75.227 E.02384
G1 X120.337 Y75.982 E.02369
G1 X120.239 Y76.64 E.02086
G1 X119.993 Y77.344 E.02338
G1 X119.601 Y77.995 E.02383
G1 X119.008 Y78.616 E.02692
G1 X118.551 Y78.944 E.01764
G1 X117.878 Y79.268 E.02342
G1 X117.141 Y79.451 E.02381
G1 X116.283 Y79.471 E.02691
G1 X115.728 Y79.38 E.01763
G1 X115.023 Y79.133 E.02342
G1 X114.373 Y78.741 E.0238
G1 X113.819 Y78.226 E.02372
G1 X113.424 Y77.692 E.02083
G1 X113.1 Y77.019 E.02342
G1 X112.917 Y76.282 E.02381
G1 X112.9 Y75.814 E.01468
G1 X112.9 Y75.814 F9000
G1 X113.273 Y75.754
;TYPE:External perimeter
G1 F1200
G1 X113.267 Y75.519 E.00737
G1 X113.36 Y74.929 E.01873
G1 X113.589 Y74.293 E.02119
G1 X113.82 Y73.891 E.01454
G1 X114.224 Y73.393 E.02011
G1 X114.572 Y73.087 E.01453
G1 X115.118 Y72.747 E.02017
G1 X115.545 Y72.57 E.01449
G1 X116.171 Y72.425 E.02015
G1 X116.626 Y72.394 E.0143
G1 X117.056 Y72.425 E.01352
G1 X117.682 Y72.57 E.02015
G1 X118.11 Y72.747 E.01452
G1 X118.655 Y73.087 E.02014
G1 X119.147 Y73.554 E.02127
G1 X119.498 Y74.037 E.01872
G1 X119.785 Y74.648 E.02117
G1 X119.943 Y75.311 E.02137
G1 X119.96 Y75.99 E.0213
G1 X119.867 Y76.579 E.0187
G1 X119.638 Y77.215 E.02119
G1 X119.281 Y77.795 E.02135
G1 X118.814 Y78.287 E.02127
G1 X118.331 Y78.638 E.01872
G1 X117.719 Y78.926 E.02121
G1 X117.056 Y79.083 E.02136
G1 X116.344 Y79.098 E.02233
G1 X115.786 Y79.007 E.01773
G1 X115.153 Y78.779 E.0211
G1 X114.572 Y78.421 E.0214
G1 X114.081 Y77.954 E.02125
G1 X113.73 Y77.471 E.01872
G1 X113.442 Y76.86 E.02118
G1 X113.284 Y76.197 E.02137
G1 X113.275 Y75.814 E.01201
G1 E-3.5 F3600
;WIPE_START
G1 F7200
G1 X113.273 Y75.754 E-.02852
G1 X113.267 Y75.519 E-.11166
G1 X113.36 Y74.929 E-.28371
G1 X113.589 Y74.293 E-.32109
G1 X113.82 Y73.891 E-.22023
G1 X114.224 Y73.393 E-.3046
G1 X114.572 Y73.087 E-.22012
G1 X114.59 Y73.076 E-.01007
;WIPE_END
G1 X168.692 Y59.986 F9000
G1 E5 F2400
;TYPE:Perimeter
G1 F1200
G1 X168.583 Y59.569 E.01351
G1 X168.547 Y58.736 E.02614
G1 X168.649 Y58.01 E.02299
G1 X168.914 Y57.237 E.02562
G1 X169.184 Y56.741 E.01771
G1 X169.673 Y56.12 E.02478
G1 X170.084 Y55.741 E.01753
G1 X170.752 Y55.309 E.02494
G1 X171.26 Y55.085 E.01741
G1 X172.034 Y54.893 E.025
G1 X172.586 Y54.844 E.01738
G1 X173.109 Y54.87 E.01642
G1 X173.886 Y55.037 E.02492
G1 X174.404 Y55.238 E.01742
G1 X175.088 Y55.65 E.02504
G1 X175.703 Y56.213 E.02614
G1 X176.059 Y56.682 E.01846
G1 X176.233 Y56.952 E.01007
G1 X176.503 Y57.533 E.02009
G1 X176.711 Y58.344 E.02625
G1 X176.748 Y59.177 E.02614
G1 X176.645 Y59.903 E.02299
G1 X176.38 Y60.676 E.02562
G1 X175.954 Y61.397 E.02626
G1 X175.391 Y62.012 E.02614
G1 X174.805 Y62.453 E.023
G1 X174.071 Y62.812 E.02562
G1 X173.26 Y63.021 E.02626
G1 X172.427 Y63.057 E.02614
G1 X171.701 Y62.954 E.02299
G1 X170.928 Y62.69 E.02561
G1 X170.207 Y62.263 E.02627
G1 X169.592 Y61.7 E.02614
G1 X169.151 Y61.114 E.023
G1 X168.797 Y60.393 E.02518
G1 X168.707 Y60.044 E.0113
G1 X168.707 Y60.044 F9000
G1 X169.053 Y59.891
G1 F1200
G1 X168.951 Y59.484 E.01316
G1 X168.924 Y58.728 E.02372
G1 X169.022 Y58.071 E.02083
G1 X169.268 Y57.366 E.02341
G1 X169.534 Y56.892 E.01704
G1 X169.965 Y56.357 E.02154
G1 X170.367 Y55.996 E.01694
G1 X170.952 Y55.629 E.02165
G1 X171.493 Y55.405 E.01836
G1 X172.119 Y55.26 E.02015
G1 X172.684 Y55.22 E.01776
G1 X173.175 Y55.26 E.01545
G1 X173.801 Y55.405 E.02015
G1 X174.343 Y55.629 E.01839
G1 X174.888 Y55.97 E.02016
G1 X175.442 Y56.485 E.02372
G1 X175.891 Y57.111 E.02415
G1 X176.161 Y57.692 E.02009
G1 X176.344 Y58.429 E.02381
G1 X176.371 Y59.185 E.02372
G1 X176.273 Y59.842 E.02083
G1 X176.026 Y60.547 E.02342
G1 X175.634 Y61.197 E.0238
G1 X175.119 Y61.751 E.02372
G1 X174.585 Y62.147 E.02084
G1 X173.912 Y62.47 E.02341
G1 X173.175 Y62.653 E.02381
G1 X172.419 Y62.68 E.02372
G1 X171.762 Y62.582 E.02083
G1 X171.057 Y62.335 E.02342
G1 X170.406 Y61.943 E.02383
G1 X169.853 Y61.428 E.02369
G1 X169.457 Y60.894 E.02084
G1 X169.139 Y60.234 E.02297
G1 X169.068 Y59.949 E.00921
G1 X169.068 Y59.949 F9000
G1 X169.414 Y59.795
;TYPE:External perimeter
G1 F1200
G1 X169.318 Y59.399 E.01278
G1 X169.301 Y58.721 E.02126
G1 X169.394 Y58.132 E.0187
G1 X169.623 Y57.496 E.02119
G1 X169.854 Y57.093 E.01456
G1 X170.258 Y56.595 E.02011
G1 X170.606 Y56.289 E.01453
G1 X171.151 Y55.949 E.02014
G1 X171.578 Y55.772 E.01449
G1 X172.204 Y55.627 E.02015
G1 X172.66 Y55.597 E.01433
G1 X173.09 Y55.627 E.01352
G1 X173.716 Y55.772 E.02015
G1 X174.143 Y55.949 E.01449
G1 X174.688 Y56.289 E.02014
G1 X175.18 Y56.757 E.02129
G1 X175.531 Y57.239 E.0187
G1 X175.819 Y57.851 E.02121
G1 X175.977 Y58.514 E.02137
G1 X175.994 Y59.192 E.02126
G1 X175.901 Y59.781 E.0187
G1 X175.672 Y60.417 E.02119
G1 X175.314 Y60.998 E.0214
G1 X174.847 Y61.49 E.02127
G1 X174.365 Y61.841 E.0187
G1 X173.753 Y62.128 E.02119
G1 X173.09 Y62.286 E.02137
G1 X172.412 Y62.303 E.02126
G1 X171.822 Y62.21 E.01873
G1 X171.186 Y61.981 E.02119
G1 X170.606 Y61.624 E.02135
G1 X170.114 Y61.156 E.02129
G1 X169.763 Y60.674 E.0187
G1 X169.481 Y60.075 E.02076
G1 X169.428 Y59.854 E.00713
G1 E-3.5 F3600
;WIPE_START
G1 F7200
G1 X169.414 Y59.795 E-.0288
G1 X169.318 Y59.399 E-.19355
G1 X169.301 Y58.721 E-.32215
G1 X169.394 Y58.132 E-.28324
G1 X169.623 Y57.496 E-.32109
G1 X169.854 Y57.093 E-.22064
G1 X170.027 Y56.88 E-.13053
;WIPE_END
G1 X173.189 Y100.613 F9000
G1 E5 F2400
;TYPE:Perimeter
G1 F1200
G1 X173.644 Y100.573 E.01432
G1 X174.166 Y100.599 E.01639
G1 X174.943 Y100.766 E.02492
G1 X175.462 Y100.967 E.01745
G1 X176.145 Y101.379 E.02501
G1 X176.76 Y101.942 E.02614
G1 X177.201 Y102.528 E.023
G1 X177.561 Y103.262 E.02563
G1 X177.769 Y104.073 E.02625
G1 X177.806 Y104.906 E.02614
G1 X177.703 Y105.632 E.02299
G1 X177.438 Y106.405 E.02562
G1 X177.012 Y107.126 E.02626
G1 X176.448 Y107.741 E.02616
G1 X175.863 Y108.182 E.02297
G1 X175.128 Y108.541 E.02565
G1 X174.317 Y108.749 E.02625
G1 X173.572 Y108.784 E.02338
G1 X172.758 Y108.683 E.02572
G1 X171.985 Y108.418 E.02562
G1 X171.264 Y107.992 E.02626
G1 X170.649 Y107.429 E.02614
G1 X170.209 Y106.843 E.02298
G1 X169.849 Y106.109 E.02563
G1 X169.641 Y105.298 E.02625
G1 X169.608 Y104.672 E.01966
G1 X169.616 Y104.294 E.01185
G1 X169.707 Y103.739 E.01763
G1 X169.972 Y102.966 E.02562
G1 X170.241 Y102.47 E.01769
G1 X170.73 Y101.849 E.02478
G1 X171.142 Y101.47 E.01755
G1 X171.809 Y101.038 E.02492
G1 X172.317 Y100.814 E.01741
G1 X173.092 Y100.621 E.02504
G1 X173.13 Y100.618 E.0012
G1 X173.13 Y100.618 F9000
G1 X173.236 Y100.984
G1 F1200
G1 X173.679 Y100.949 E.01393
G1 X174.184 Y100.98 E.01586
G1 X174.859 Y101.133 E.0217
G1 X175.401 Y101.358 E.0184
G1 X175.946 Y101.698 E.02014
G1 X176.499 Y102.214 E.02371
G1 X176.895 Y102.748 E.02084
G1 X177.219 Y103.421 E.02342
G1 X177.401 Y104.158 E.0238
G1 X177.428 Y104.913 E.02369
G1 X177.331 Y105.571 E.02085
G1 X177.084 Y106.276 E.02342
G1 X176.692 Y106.926 E.0238
G1 X176.177 Y107.48 E.02372
G1 X175.642 Y107.875 E.02085
G1 X174.969 Y108.199 E.02342
G1 X174.232 Y108.382 E.02381
G1 X173.564 Y108.407 E.02096
G1 X172.819 Y108.311 E.02355
G1 X172.114 Y108.064 E.02342
G1 X171.464 Y107.672 E.0238
G1 X170.91 Y107.157 E.02372
G1 X170.515 Y106.623 E.02083
G1 X170.191 Y105.95 E.02342
G1 X170.008 Y105.213 E.02381
G1 X169.988 Y104.355 E.02691
G1 X170.079 Y103.8 E.01763
G1 X170.326 Y103.095 E.02342
G1 X170.57 Y102.655 E.01578
G1 X171.023 Y102.086 E.0228
G1 X171.402 Y101.743 E.01603
G1 X172.009 Y101.358 E.02254
G1 X172.503 Y101.147 E.01684
G1 X173.176 Y100.989 E.02168
G1 X173.176 Y100.989 F9000
G1 X173.282 Y101.355
;TYPE:External perimeter
G1 F1200
G1 X173.717 Y101.326 E.01367
G1 X174.147 Y101.356 E.01352
G1 X174.774 Y101.501 E.02018
G1 X175.201 Y101.678 E.01449
G1 X175.746 Y102.018 E.02014
G1 X176.238 Y102.485 E.02127
G1 X176.589 Y102.968 E.01872
G1 X176.877 Y103.58 E.02121
G1 X177.034 Y104.243 E.02136
G1 X177.051 Y104.921 E.02126
G1 X176.958 Y105.51 E.0187
G1 X176.73 Y106.146 E.02118
G1 X176.372 Y106.727 E.0214
G1 X175.905 Y107.218 E.02125
G1 X175.422 Y107.569 E.01872
G1 X174.811 Y107.857 E.02118
G1 X174.147 Y108.015 E.0214
G1 X173.557 Y108.03 E.0185
G1 X172.88 Y107.939 E.02142
G1 X172.244 Y107.71 E.02119
G1 X171.664 Y107.352 E.02137
G1 X171.172 Y106.885 E.02127
G1 X170.821 Y106.403 E.0187
G1 X170.533 Y105.791 E.02121
G1 X170.376 Y105.128 E.02136
G1 X170.358 Y104.45 E.02127
G1 X170.451 Y103.86 E.01873
G1 X170.68 Y103.224 E.02119
G1 X170.911 Y102.822 E.01454
G1 X171.316 Y102.324 E.02013
G1 X171.664 Y102.018 E.01453
G1 X172.209 Y101.678 E.02014
G1 X172.636 Y101.501 E.01449
G1 X173.223 Y101.365 E.01889
G1 E-3.5 F3600
;WIPE_START
G1 F7200
G1 X173.282 Y101.355 E-.02842
G1 X173.717 Y101.326 E-.20708
G1 X174.147 Y101.356 E-.20475
G1 X174.774 Y101.501 E-.30569
G1 X175.201 Y101.678 E-.21956
G1 X175.746 Y102.018 E-.30512
G1 X176.096 Y102.351 E-.22938
;WIPE_END
G1 X173.002 Y161.263 F9000
G1 E5 F2400
;TYPE:Perimeter
G1 F1200
G1 X173.464 Y161.286 E.0145
G1 X174.241 Y161.453 E.02492
G1 X174.759 Y161.654 E.01742
G1 X175.443 Y162.066 E.02504
G1 X176.058 Y162.629 E.02614
G1 X176.498 Y163.215 E.02298
G1 X176.791 Y163.804 E.02063
G1 X176.921 Y164.134 E.01112
G1 X177.066 Y164.76 E.02015
G1 X177.103 Y165.593 E.02614
G1 X177 Y166.319 E.02299
G1 X176.735 Y167.093 E.02565
G1 X176.367 Y167.72 E.0228
G1 X176.189 Y167.967 E.00955
G1 X175.746 Y168.428 E.02005
G1 X175.16 Y168.869 E.023
G1 X174.426 Y169.228 E.02562
G1 X173.615 Y169.437 E.02626
G1 X172.781 Y169.473 E.02617
G1 X172.056 Y169.371 E.02296
G1 X171.282 Y169.106 E.02565
G1 X170.561 Y168.68 E.02626
G1 X169.946 Y168.116 E.02616
G1 X169.506 Y167.53 E.02298
G1 X169.146 Y166.796 E.02563
G1 X168.938 Y165.985 E.02625
G1 X168.901 Y165.152 E.02614
G1 X169.004 Y164.426 E.02299
G1 X169.047 Y164.261 E.00535
G1 X169.269 Y163.653 E.02029
G1 X169.538 Y163.158 E.01766
G1 X170.027 Y162.536 E.02481
G1 X170.439 Y162.157 E.01755
G1 X171.107 Y161.725 E.02494
G1 X171.615 Y161.501 E.01741
G1 X172.389 Y161.309 E.025
G1 X172.941 Y161.26 E.01738
G1 X172.941 Y161.26 F9000
G1 X173.001 Y161.635
G1 F1200
G1 X173.53 Y161.676 E.01664
G1 X174.156 Y161.821 E.02015
G1 X174.698 Y162.045 E.01839
G1 X175.243 Y162.386 E.02016
G1 X175.796 Y162.901 E.02369
G1 X176.192 Y163.435 E.02084
G1 X176.554 Y164.219 E.02708
G1 X176.699 Y164.845 E.02015
G1 X176.726 Y165.601 E.02372
G1 X176.628 Y166.258 E.02083
G1 X176.381 Y166.963 E.02342
G1 X175.917 Y167.706 E.02747
G1 X175.474 Y168.167 E.02005
G1 X174.94 Y168.563 E.02084
G1 X174.267 Y168.886 E.02341
G1 X173.53 Y169.069 E.02381
G1 X172.774 Y169.096 E.02372
G1 X172.116 Y168.999 E.02085
G1 X171.412 Y168.752 E.02339
G1 X170.761 Y168.36 E.02383
G1 X170.208 Y167.845 E.02369
G1 X169.812 Y167.31 E.02087
G1 X169.488 Y166.637 E.02342
G1 X169.305 Y165.9 E.02381
G1 X169.278 Y165.145 E.02369
G1 X169.402 Y164.388 E.02405
G1 X169.623 Y163.782 E.02022
G1 X169.868 Y163.341 E.01582
G1 X170.32 Y162.774 E.02274
G1 X170.693 Y162.436 E.01578
G1 X171.306 Y162.045 E.0228
G1 X171.786 Y161.839 E.01638
G1 X172.474 Y161.676 E.02217
G1 X172.941 Y161.64 E.01469
G1 X173.002 Y162.014 F9000
;TYPE:External perimeter
G1 F1200
G1 X173.014 Y162.013 E.00038
G1 X173.445 Y162.043 E.01355
G1 X174.071 Y162.188 E.02015
G1 X174.498 Y162.365 E.01449
G1 X175.043 Y162.706 E.02016
G1 X175.535 Y163.173 E.02127
G1 X175.886 Y163.655 E.0187
G1 X176.187 Y164.304 E.02243
G1 X176.331 Y164.93 E.02014
G1 X176.349 Y165.608 E.02127
G1 X176.256 Y166.198 E.01873
G1 X176.027 Y166.834 E.02119
G1 X175.728 Y167.32 E.01789
G1 X175.202 Y167.906 E.02469
G1 X174.719 Y168.257 E.01872
G1 X174.108 Y168.545 E.02118
G1 X173.445 Y168.702 E.02136
G1 X172.767 Y168.719 E.02126
G1 X172.177 Y168.626 E.01873
G1 X171.541 Y168.397 E.02119
G1 X170.961 Y168.04 E.02135
G1 X170.469 Y167.573 E.02127
G1 X170.118 Y167.09 E.01872
G1 X169.83 Y166.479 E.02118
G1 X169.673 Y165.815 E.02139
G1 X169.655 Y165.137 E.02127
G1 X169.757 Y164.515 E.01976
G1 X169.978 Y163.909 E.02022
G1 X170.209 Y163.51 E.01446
G1 X170.614 Y163.01 E.02017
G1 X170.961 Y162.706 E.01446
G1 X171.506 Y162.365 E.02016
G1 X171.933 Y162.188 E.01449
G1 X172.559 Y162.044 E.02014
G1 X172.942 Y162.018 E.01204
G1 E-3.5 F3600
;WIPE_START
G1 F7200
G1 X173.002 Y162.014 E-.02856
G1 X173.014 Y162.013 E-.00572
G1 X173.445 Y162.043 E-.20522
