; generated by PrusaSlicer 2.8.1+win64 on 2024-12-29 at 21:17:23 UTC

; 

; external perimeters extrusion width = 0.42mm
; perimeters extrusion width = 0.44mm
; infill extrusion width = 0.44mm
; solid infill extrusion width = 0.44mm
; top infill extrusion width = 0.40mm
; support material extrusion width = 0.36mm
; first layer extrusion width = 0.42mm

M201 X500 Y500 Z100 E5000 ; sets maximum accelerations, mm/sec^2
M203 X500 Y500 Z10 E60 ; sets maximum feedrates, mm / sec
M204 S500 T1000 ; sets acceleration (S) and retract acceleration (R), mm/sec^2
M205 X8.00 Y8.00 Z0.40 E5.00 ; sets the jerk limits, mm/sec
M205 S0 T0 ; sets the minimum extruding and travel feed rate, mm/sec

; printing object cosmotyl-holderleft.stl id:0 copy 0
; stop printing object cosmotyl-holderleft.stl id:0 copy 0

;TYPE:Custom
G90 ; use absolute coordinates
M83 ; extruder relative mode
M104 S150 ; set temporary nozzle temp to prevent oozing during homing
M140 S60 ; set final bed temp
G4 S30 ; allow partial nozzle warmup
G28 ; home all axis
G1 Z50 F240
G1 X2.0 Y10 F3000
M104 S210 ; set final nozzle temp
M190 S60 ; wait for bed temp to stabilize
M109 S210 ; wait for nozzle temp to stabilize
G1 Z0.28 F240
G92 E0
G1 X2.0 Y140 E10 F1500 ; prime the nozzle
G1 X2.3 Y140 F5000
G92 E0
G1 X2.3 Y10 E10 F1200 ; prime the nozzle
G92 E0
G21 ; set units to millimeters
G90 ; use absolute coordinates
M83 ; use relative distances for extrusion
; Filament gcode
M107
;LAYER_CHANGE
;Z:0.2
;HEIGHT:0.2
G1 E-5 F3600
G1 Z.2 F9000
G1 X96.672 Y80.264
G1 Z.2
G1 E5 F2400
M204 S500
;TYPE:Skirt/Brim
;WIDTH:0.42
G1 F1200
G1 X97.336 Y79.599 E.02947
G1 X98.246 Y78.992 E.0343
G1 X99.113 Y78.632 E.02943
G1 X100.447 Y78.402 E.04244
G1 X143.002 Y78.4 E1.33428
G1 X144.274 Y78.605 E.0404
G1 X145.442 Y79.11 E.0399
G1 X146.576 Y80.217 E.04969
G1 X147.04 Y81.872 E.05389
G1 X147.034 Y90.847 E.2814
G1 X144.658 Y120.276 E.92573
G1 X144.468 Y121.959 E.0531
G1 X143.362 Y128.022 E.19324
G1 X142.858 Y129.7 E.05493
G1 X135.565 Y146.639 E.57824
G1 X134.596 Y147.893 E.04969
G1 X132.961 Y148.55 E.05525
G1 X94.43 Y152.494 E1.21442
G1 X87.242 Y152.558 E.22538
G1 X85.704 Y152.175 E.0497
G1 X84.221 Y150.452 E.07128
G1 X83.958 Y149.482 E.03151
G1 X83.881 Y148.609 E.02748
G1 X83.881 Y143.309 E.16618
G1 X83.957 Y142.441 E.02732
G1 X95.597 Y82.444 E1.91624
G1 X95.948 Y81.408 E.0343
G1 X96.64 Y80.314 E.04059
G1 E-3.5 F3600
;WIPE_START
G1 F7200
G1 X96.672 Y80.264 E-.0282
G1 X97.336 Y79.599 E-.44638
G1 X98.246 Y78.992 E-.51959
G1 X99.113 Y78.632 E-.44592
G1 X99.237 Y78.611 E-.05991
;WIPE_END
; printing object cosmotyl-holderleft.stl id:0 copy 0
G1 X109.486 Y106.627 F9000
G1 E5 F2400
;TYPE:Perimeter
;WIDTH:0.419999
G1 F1200
G1 X109.676 Y106.539 E.00657
G1 X110.582 Y106.395 E.02876
G1 X112.59 Y106.395 E.06296
G1 X113.259 Y106.475 E.02113
G1 X114.008 Y106.751 E.02503
G1 X114.66 Y107.211 E.02502
G1 X115.171 Y107.824 E.02502
G1 X115.506 Y108.549 E.02504
G1 X115.65 Y109.455 E.02876
G1 X115.65 Y128.463 E.59598
G1 X115.57 Y129.132 E.02113
G1 X115.294 Y129.881 E.02503
G1 X114.834 Y130.533 E.02502
G1 X114.66 Y130.707 E.00772
G1 X114.221 Y131.044 E.01735
G1 X113.496 Y131.379 E.02504
G1 X112.713 Y131.515 E.02492
G1 X110.582 Y131.523 E.06682
G1 X109.913 Y131.443 E.02113
G1 X109.164 Y131.167 E.02503
G1 X108.512 Y130.707 E.02502
G1 X108.001 Y130.094 E.02502
G1 X107.666 Y129.369 E.02504
G1 X107.522 Y128.463 E.02876
G1 X107.522 Y109.455 E.59598
G1 X107.61 Y108.758 E.02203
G1 X107.879 Y108.035 E.02419
G1 X108.338 Y107.385 E.02495
G1 X108.951 Y106.874 E.02502
G1 X109.431 Y106.652 E.01658
G1 X109.431 Y106.652 F9000
G1 X109.607 Y106.982
G1 F1200
G1 X109.82 Y106.887 E.00731
G1 X110.582 Y106.772 E.02416
G1 X112.59 Y106.772 E.06296
G1 X113.209 Y106.849 E.01956
G1 X113.863 Y107.099 E.02195
G1 X114.431 Y107.51 E.02198
G1 X114.872 Y108.054 E.02196
G1 X115.158 Y108.693 E.02195
G1 X115.273 Y109.455 E.02416
G1 X115.273 Y128.463 E.59598
G1 X115.196 Y129.082 E.01956
G1 X114.946 Y129.736 E.02195
G1 X114.535 Y130.304 E.02198
G1 X114.431 Y130.408 E.00461
G1 X113.991 Y130.745 E.01738
G1 X113.352 Y131.031 E.02195
G1 X112.664 Y131.141 E.02185
G1 X110.582 Y131.146 E.06528
G1 X109.963 Y131.069 E.01956
G1 X109.309 Y130.819 E.02195
G1 X108.741 Y130.408 E.02198
G1 X108.3 Y129.864 E.02196
G1 X108.014 Y129.225 E.02195
G1 X107.899 Y128.463 E.02416
G1 X107.899 Y109.455 E.59598
G1 X107.984 Y108.81 E.0204
G1 X108.227 Y108.18 E.02117
G1 X108.637 Y107.614 E.02191
G1 X109.181 Y107.173 E.02196
G1 X109.552 Y107.007 E.01274
G1 X109.552 Y107.007 F9000
G1 X109.727 Y107.337
;TYPE:External perimeter
G1 F1200
G1 X109.965 Y107.235 E.00812
G1 X110.582 Y107.149 E.01953
G1 X112.59 Y107.149 E.06296
G1 X113.16 Y107.223 E.01802
G1 X113.719 Y107.447 E.01888
G1 X114.201 Y107.809 E.0189
G1 X114.573 Y108.283 E.01889
G1 X114.81 Y108.838 E.01892
G1 X114.896 Y109.455 E.01953
G1 X114.896 Y128.463 E.59598
G1 X114.822 Y129.033 E.01802
G1 X114.598 Y129.592 E.01888
G1 X114.201 Y130.109 E.02044
G1 X113.762 Y130.446 E.01735
G1 X113.207 Y130.683 E.01892
G1 X112.615 Y130.767 E.01875
G1 X110.582 Y130.769 E.06374
G1 X110.012 Y130.695 E.01802
G1 X109.453 Y130.471 E.01888
G1 X108.971 Y130.109 E.0189
G1 X108.599 Y129.635 E.01889
G1 X108.362 Y129.08 E.01892
G1 X108.276 Y128.463 E.01953
G1 X108.276 Y109.455 E.59598
G1 X108.357 Y108.862 E.01877
G1 X108.575 Y108.325 E.01817
G1 X108.936 Y107.844 E.01886
G1 X109.41 Y107.472 E.01889
G1 X109.672 Y107.36 E.00893
G1 E-3.5 F3600
;WIPE_START
G1 F7200
G1 X109.727 Y107.337 E-.02832
G1 X109.965 Y107.235 E-.12299
G1 X110.582 Y107.149 E-.29591
G1 X112.59 Y107.149 E-.9538
G1 X112.797 Y107.176 E-.09898
;WIPE_END
G1 X122.413 Y96.291 F9000
G1 E5 F2400
;TYPE:Perimeter
G1 F1200
G1 X122.631 Y96.328 E.00693
G1 X122.969 Y96.469 E.01148
G1 X123.404 Y96.764 E.01648
G1 X123.593 Y96.972 E.00881
G1 X123.922 Y97.495 E.01937
G1 X124.062 Y98.098 E.01941
G1 X124.08 Y98.283 E.00583
G1 X124.08 Y139.635 E1.29656
G1 X123.977 Y140.244 E.01937
G1 X123.836 Y140.582 E.01148
G1 X123.481 Y141.084 E.01928
G1 X122.969 Y141.449 E.01972
G1 X122.631 Y141.59 E.01148
G1 X122.075 Y141.692 E.01772
G1 X121.012 Y141.693 E.03333
G1 X120.343 Y141.613 E.02113
G1 X119.594 Y141.337 E.02503
G1 X118.942 Y140.877 E.02502
G1 X118.591 Y140.472 E.0168
G1 X118.308 Y140.051 E.01591
G1 X118.096 Y139.539 E.01738
G1 X117.96 Y138.756 E.02492
G1 X117.952 Y137.889 E.02719
G1 X117.952 Y99.285 E1.2104
G1 X118.032 Y98.616 E.02113
G1 X118.096 Y98.379 E.0077
G1 X118.308 Y97.867 E.01738
G1 X118.431 Y97.654 E.00771
G1 X118.768 Y97.215 E.01735
G1 X118.942 Y97.041 E.00772
G1 X119.381 Y96.704 E.01735
G1 X119.594 Y96.581 E.00771
G1 X120.106 Y96.369 E.01738
G1 X120.343 Y96.305 E.0077
G1 X121.012 Y96.225 E.02113
G1 X122.022 Y96.225 E.03167
G1 X122.354 Y96.281 E.01056
G1 X122.354 Y96.281 F9000
G1 X122.34 Y96.659
G1 F1200
G1 X122.556 Y96.698 E.00688
G1 X122.76 Y96.782 E.00692
G1 X123.226 Y97.113 E.01792
G1 X123.523 Y97.545 E.01644
G1 X123.607 Y97.749 E.00692
G1 X123.703 Y98.283 E.01701
G1 X123.703 Y139.635 E1.29656
G1 X123.607 Y140.169 E.01701
G1 X123.523 Y140.373 E.00692
G1 X123.212 Y140.819 E.01705
G1 X122.76 Y141.136 E.01731
G1 X122.556 Y141.22 E.00692
G1 X122.054 Y141.315 E.01602
G1 X121.012 Y141.316 E.03267
G1 X120.393 Y141.239 E.01956
G1 X119.739 Y140.989 E.02195
G1 X119.171 Y140.578 E.02198
G1 X118.73 Y140.034 E.02196
G1 X118.656 Y139.906 E.00464
G1 X118.444 Y139.395 E.01735
G1 X118.334 Y138.707 E.02185
G1 X118.329 Y99.285 E1.23605
G1 X118.406 Y98.666 E.01956
G1 X118.656 Y98.012 E.02195
G1 X119.067 Y97.444 E.02198
G1 X119.611 Y97.003 E.02196
G1 X120.25 Y96.717 E.02195
G1 X121.012 Y96.602 E.02416
G1 X122.022 Y96.602 E.03167
G1 X122.281 Y96.648 E.00825
G1 X122.281 Y96.648 F9000
G1 X122.267 Y97.029
;TYPE:External perimeter
G1 F1200
G1 X122.523 Y97.081 E.00819
G1 X122.948 Y97.368 E.01608
G1 X123.226 Y97.787 E.01577
G1 X123.326 Y98.283 E.01586
G1 X123.326 Y139.635 E1.29656
G1 X123.228 Y140.129 E.01579
G1 X122.944 Y140.555 E.01605
G1 X122.488 Y140.849 E.01701
G1 X122.022 Y140.939 E.01488
G1 X121.012 Y140.939 E.03167
G1 X120.442 Y140.865 E.01802
G1 X119.883 Y140.641 E.01888
G1 X119.401 Y140.279 E.0189
G1 X119.004 Y139.762 E.02044
G1 X118.792 Y139.25 E.01738
G1 X118.708 Y138.658 E.01875
G1 X118.706 Y99.285 E1.23451
G1 X118.78 Y98.715 E.01802
G1 X119.004 Y98.156 E.01888
G1 X119.366 Y97.674 E.0189
G1 X119.84 Y97.302 E.01889
G1 X120.395 Y97.065 E.01892
G1 X121.012 Y96.979 E.01953
G1 X122.022 Y96.979 E.03167
G1 X122.208 Y97.017 E.00595
G1 E-3.5 F3600
;WIPE_START
G1 F7200
G1 X122.267 Y97.029 E-.0286
G1 X122.523 Y97.081 E-.12408
G1 X122.948 Y97.368 E-.24359
G1 X123.226 Y97.787 E-.23885
G1 X123.326 Y98.283 E-.24034
G1 X123.326 Y99.598 E-.62454
;WIPE_END
G1 X104.416 Y98.038 F9000
G1 E5 F2400
G1 F1200
G1 X104.466 Y98.323 E.00907
G1 X104.466 Y139.635 E1.29531
G1 X104.349 Y140.163 E.01696
G1 X104.054 Y140.579 E.01599
G1 X103.622 Y140.85 E.01599
G1 X103.162 Y140.939 E.01469
G1 X102.152 Y140.939 E.03167
G1 X101.582 Y140.865 E.01802
G1 X101.023 Y140.641 E.01888
G1 X100.541 Y140.279 E.0189
G1 X100.169 Y139.805 E.01889
G1 X99.932 Y139.25 E.01892
G1 X99.846 Y138.633 E.01953
G1 X99.846 Y99.285 E1.23373
G1 X99.92 Y98.715 E.01802
G1 X100.144 Y98.156 E.01888
G1 X100.506 Y97.674 E.0189
G1 X100.98 Y97.302 E.01889
G1 X101.535 Y97.065 E.01892
G1 X102.152 Y96.979 E.01953
G1 X103.162 Y96.979 E.03167
G1 X103.447 Y97.014 E.009
G1 X103.913 Y97.223 E.01601
G1 X104.255 Y97.577 E.01543
G1 X104.377 Y97.823 E.00861
G1 X104.405 Y97.979 E.00497
G1 E-3.5 F3600
;WIPE_START
G1 F7200
G1 X104.416 Y98.038 E-.02851
G1 X104.466 Y98.323 E-.13744
G1 X104.466 Y101.132 E-1.33405
;WIPE_END
G1 X92.024 Y149.113 F9000
G1 E5 F2400
;WIDTH:0.45058
G1 F1200
G1 X91.362 Y149.113 E.02244
;WIDTH:0.45718
G1 X91.314 Y149.11 E.00166
G1 E-3.5 F3600
;WIPE_START
G1 F7200
G1 X92.024 Y149.113 E-.33725
G1 X91.362 Y149.113 E-.31445
G1 X91.314 Y149.11 E-.02284
;WIPE_END
G1 E-.82546 F3600
G1 X135.116 Y124.956 F9000
G1 E5 F2400
;TYPE:Perimeter
;WIDTH:0.419999
G1 F1200
G1 X134.886 Y124.444 E.0176
G1 X134.814 Y123.961 E.01531
G1 X134.807 Y123.523 E.01373
G1 X134.934 Y122.982 E.01742
G1 X135.275 Y122.356 E.02235
G1 X135.808 Y121.84 E.02326
G1 X136.46 Y121.519 E.02279
G1 X137.159 Y121.41 E.02218
G1 X137.712 Y121.471 E.01744
G1 X138.236 Y121.659 E.01746
G1 X138.722 Y121.996 E.01854
G1 X138.95 Y122.203 E.00966
G1 X139.27 Y122.658 E.01744
G1 X139.514 Y123.343 E.0228
;WIDTH:0.456773
G1 X139.541 Y123.585 E.00838
;WIDTH:0.493546
G1 X139.568 Y123.828 E.00916
;WIDTH:0.530319
G1 X139.596 Y124.07 E.00987
;WIDTH:0.561348
G1 X139.414 Y124.792 E.0321
G1 X139.259 Y124.988 E.01077
;WIDTH:0.514232
G1 X139.104 Y125.184 E.00979
;WIDTH:0.467116
G1 X138.95 Y125.381 E.00882
;WIDTH:0.419999
G1 X138.388 Y125.842 E.02279
G1 X137.712 Y126.113 E.02284
G1 X136.987 Y126.167 E.02279
G1 X136.279 Y126 E.02281
G1 X135.655 Y125.627 E.02279
G1 X135.172 Y125.083 E.02281
G1 X135.14 Y125.011 E.00247
G1 X135.14 Y125.011 F9000
G1 X135.443 Y124.794
;TYPE:External perimeter
G1 F1200
G1 X135.236 Y124.303 E.01671
G1 X135.176 Y123.748 E.0175
G1 X135.174 Y123.609 E.00436
G1 X135.301 Y123.068 E.01742
G1 X135.6 Y122.549 E.01878
G1 X136.059 Y122.122 E.01966
G1 X136.614 Y121.863 E.0192
G1 X137.203 Y121.785 E.01863
G1 X137.585 Y121.826 E.01205
G1 X138.108 Y122.014 E.01743
G1 X138.601 Y122.379 E.01923
G1 X138.961 Y122.875 E.01922
G1 X139.155 Y123.457 E.01924
G1 X139.163 Y124.07 E.01922
G1 X138.987 Y124.657 E.01921
G1 X138.641 Y125.164 E.01925
G1 X138.159 Y125.542 E.01921
G1 X137.585 Y125.758 E.01923
G1 X136.973 Y125.79 E.01922
G1 X136.379 Y125.636 E.01924
G1 X135.86 Y125.31 E.01922
G1 X135.468 Y124.849 E.01897
G1 E-3.5 F3600
;WIPE_START
G1 F7200
G1 X135.443 Y124.794 E-.0287
G1 X135.236 Y124.303 E-.2531
G1 X135.176 Y123.748 E-.26516
G1 X135.174 Y123.609 E-.06603
G1 X135.301 Y123.068 E-.26396
G1 X135.6 Y122.549 E-.28451
G1 X136.059 Y122.122 E-.29778
G1 X136.137 Y122.086 E-.04076
;WIPE_END
G1 X139.841 Y89.459 F9000
G1 E5 F2400
G1 F1200
G1 X139.605 Y89.442 E.00742
G1 X139.063 Y89.296 E.0176
G1 X138.452 Y89.006 E.02121
G1 X137.91 Y88.588 E.02146
G1 X137.47 Y88.065 E.02143
G1 X137.198 Y87.572 E.01765
G1 X136.982 Y86.933 E.02115
G1 X136.904 Y86.254 E.02143
G1 X136.973 Y85.573 E.02146
G1 X137.184 Y84.925 E.02137
G1 X137.449 Y84.432 E.01755
G1 X137.881 Y83.907 E.02132
G1 X138.226 Y83.613 E.01421
G1 X138.78 Y83.282 E.02023
G1 X139.427 Y83.061 E.02144
G1 X140.242 Y82.976 E.02569
G1 X140.698 Y83.019 E.01436
G1 X141.32 Y83.186 E.02019
G1 X141.731 Y83.376 E.0142
G1 X142.263 Y83.741 E.02023
G1 X142.734 Y84.236 E.02142
G1 X143.029 Y84.718 E.01772
;WIDTH:0.435292
G1 X143.212 Y85.234 E.01786
G1 X143.279 Y85.787 E.01817
;WIDTH:0.411067
G1 X143.283 Y86.675 E.02718
;WIDTH:0.447099
G1 X143.163 Y87.454 E.02649
G1 X142.917 Y87.949 E.01858
;WIDTH:0.419999
G1 X142.589 Y88.409 E.01771
G1 X142.079 Y88.867 E.02149
G1 X141.598 Y89.155 E.01758
G1 X140.964 Y89.392 E.02122
G1 X140.287 Y89.49 E.02145
G1 X139.901 Y89.463 E.01213
G1 E-3.5 F3600
;WIPE_START
G1 F7200
G1 X139.841 Y89.459 E-.02856
G1 X139.605 Y89.442 E-.11239
G1 X139.063 Y89.296 E-.26663
G1 X138.452 Y89.006 E-.32126
G1 X137.91 Y88.588 E-.32512
G1 X137.47 Y88.065 E-.32465
G1 X137.346 Y87.841 E-.12139
;WIPE_END
G1 X88.533 Y148.332 F9000
G1 E5 F2400
;TYPE:Perimeter
;WIDTH:0.350733
G1 F1200
G1 X88.099 Y148.333 E.01111
G1 X88.099 Y147.597 E.01884
G1 X88.165 Y147.734 E.00389
G1 X88.501 Y148.28 E.01641
G1 E-3.5 F3600
;WIPE_START
G1 F7200
G1 X88.533 Y148.332 E-.029
G1 X88.099 Y148.333 E-.20615
G1 X88.099 Y147.597 E-.3496
G1 X88.165 Y147.734 E-.07223
G1 X88.501 Y148.28 E-.30452
;WIPE_END
G1 E-.5385 F3600
G1 X88.2 Y143.911 F9000
G1 E5 F2400
;WIDTH:0.552053
G1 F1200
G1 X88.233 Y143.122 E.03343
G1 X88.324 Y142.879 E.01098
;WIDTH:0.559625
G1 X88.614 Y142.588 E.01765
G1 X88.819 Y142.493 E.00971
G1 X89.14 Y142.443 E.01396
G1 X89.652 Y142.443 E.022
G1 X89.252 Y142.713 E.02073
;WIDTH:0.565024
G1 X88.825 Y143.087 E.02464
G1 X88.497 Y143.487 E.02246
;WIDTH:0.552053
G1 X88.234 Y143.862 E.01939
G1 E-3.5 F3600
;WIPE_START
G1 F7200
G1 X88.2 Y143.911 E-.02833
G1 X88.233 Y143.122 E-.3751
G1 X88.324 Y142.879 E-.12325
G1 X88.614 Y142.588 E-.19514
G1 X88.819 Y142.493 E-.10732
G1 X89.14 Y142.443 E-.15431
G1 X89.652 Y142.443 E-.2432
G1 X89.252 Y142.713 E-.22923
G1 X89.182 Y142.774 E-.04412
;WIPE_END
G1 X93.51 Y142.373 F9000
G1 E5 F2400
;WIDTH:0.419999
G1 F1200
G1 X96.783 Y142.365 E.10262
G1 X97.566 Y142.229 E.02492
G1 X98.291 Y141.894 E.02504
G1 X98.904 Y141.383 E.02502
G1 X99.364 Y140.731 E.02502
G1 X99.571 Y140.264 E.01602
G1 X100.082 Y140.877 E.02502
G1 X100.734 Y141.337 E.02502
G1 X101.483 Y141.613 E.02503
G1 X102.152 Y141.693 E.02113
G1 X103.168 Y141.693 E.03186
G1 X103.771 Y141.59 E.01918
G1 X104.109 Y141.449 E.01148
G1 X104.621 Y141.084 E.01972
G1 X104.976 Y140.582 E.01928
G1 X105.117 Y140.244 E.01148
G1 X105.22 Y139.635 E.01937
G1 X105.22 Y99.285 E1.26514
G1 X105.202 Y98.098 E.03722
G1 X105.08 Y97.542 E.01785
G1 X104.83 Y97.083 E.01639
G1 X104.446 Y96.689 E.01725
G1 X104.14 Y96.485 E.01153
G1 X103.617 Y96.277 E.01765
G1 X103.162 Y96.225 E.01436
G1 X102.152 Y96.225 E.03167
G1 X101.246 Y96.369 E.02876
G1 X100.521 Y96.704 E.02504
G1 X100.082 Y97.041 E.01735
G1 X99.72 Y97.459 E.01734
G1 X99.72 Y83.649 E.433
G1 X99.807 Y83.231 E.01339
G1 X100 Y82.928 E.01126
G1 X100.304 Y82.734 E.01131
G1 X100.721 Y82.647 E.01336
G1 X138.372 Y82.648 E1.18052
G1 X137.713 Y83.056 E.0243
G1 X137.301 Y83.425 E.01734
G1 X136.786 Y84.072 E.02593
G1 X136.469 Y84.687 E.02169
G1 X136.223 Y85.492 E.02639
G1 X136.155 Y86.334 E.02649
G1 X136.223 Y86.975 E.02021
G1 X136.353 Y87.433 E.01493
G1 X136.535 Y87.933 E.01668
G1 X136.89 Y88.547 E.02224
G1 X137.446 Y89.183 E.02649
G1 X137.954 Y89.579 E.0202
G1 X138.404 Y89.819 E.01599
G1 X134.508 Y89.827 E.12216
G1 X133.726 Y89.963 E.02489
G1 X133.001 Y90.298 E.02504
G1 X132.562 Y90.635 E.01735
G1 X132.384 Y90.814 E.00792
G1 X131.919 Y91.479 E.02544
G1 X131.652 Y92.211 E.02443
G1 X131.572 Y92.879 E.02109
G1 X131.572 Y117.146 E.76087
G1 X131.716 Y118.052 E.02876
G1 X132.051 Y118.777 E.02504
G1 X132.388 Y119.216 E.01735
G1 X132.562 Y119.39 E.00772
G1 X133.001 Y119.727 E.01735
G1 X133.214 Y119.85 E.00771
