; generated by PrusaSlicer 2.8.1+win64 on 2024-12-29 at 21:17:36 UTC

; 

; external perimeters extrusion width = 0.42mm
; perimeters extrusion width = 0.44mm
; infill extrusion width = 0.44mm
; solid infill extrusion width = 0.44mm
; top infill extrusion width = 0.40mm
; support material extrusion width = 0.36mm
; first layer extrusion width = 0.42mm

M201 X500 Y500 Z100 E5000 ; sets maximum accelerations, mm/sec^2
M203 X500 Y500 Z10 E60 ; sets maximum feedrates, mm / sec
M204 S500 T1000 ; sets acceleration (S) and retract acceleration (R), mm/sec^2
M205 X8.00 Y8.00 Z0.40 E5.00 ; sets the jerk limits, mm/sec
M205 S0 T0 ; sets the minimum extruding and travel feed rate, mm/sec

; printing object cosmotyl-holderright.stl id:0 copy 0
; stop printing object cosmotyl-holderright.stl id:0 copy 0

;TYPE:Custom
G90 ; use absolute coordinates
M83 ; extruder relative mode
M104 S150 ; set temporary nozzle temp to prevent oozing during homing
M140 S60 ; set final bed temp
G4 S30 ; allow partial nozzle warmup
G28 ; home all axis
G1 Z50 F240
G1 X2.0 Y10 F3000
M104 S210 ; set final nozzle temp
M190 S60 ; wait for bed temp to stabilize
M109 S210 ; wait for nozzle temp to stabilize
G1 Z0.28 F240
G92 E0
G1 X2.0 Y140 E10 F1500 ; prime the nozzle
G1 X2.3 Y140 F5000
G92 E0
G1 X2.3 Y10 E10 F1200 ; prime the nozzle
G92 E0
G21 ; set units to millimeters
G90 ; use absolute coordinates
M83 ; use relative distances for extrusion
; Filament gcode
M107
;LAYER_CHANGE
;Z:0.2
;HEIGHT:0.2
G1 E-5 F3600
G1 Z.2 F9000
G1 X84.349 Y80.342
G1 Z.2
G1 E5 F2400
M204 S500
;TYPE:Skirt/Brim
;WIDTH:0.42
G1 F1200
G1 X85.523 Y79.131 E.05288
G1 X85.705 Y79.03 E.00653
G1 X86.695 Y78.614 E.03367
G1 X87.998 Y78.4 E.0414
G1 X130.553 Y78.402 E1.33428
G1 X131.458 Y78.519 E.02861
G1 X132.134 Y78.716 E.02208
G1 X133.092 Y79.186 E.03346
G1 X133.664 Y79.599 E.02212
G1 X134.311 Y80.244 E.02864
G1 X134.727 Y80.812 E.02207
G1 X135.052 Y81.408 E.02128
G1 X135.396 Y82.417 E.03342
G1 X147.043 Y142.441 E1.91711
G1 X147.119 Y143.309 E.02732
G1 X147.119 Y148.609 E.16618
G1 X147.043 Y149.48 E.02741
G1 X146.788 Y150.427 E.03075
G1 X145.907 Y151.743 E.04965
G1 X143.765 Y152.555 E.07182
G1 X136.873 Y152.511 E.2161
G1 X98.039 Y148.55 E1.22393
G1 X96.553 Y148.002 E.04966
G1 X95.435 Y146.639 E.05527
G1 X88.142 Y129.7 E.57824
G1 X87.638 Y128.022 E.05493
G1 X86.564 Y122.173 E.18646
G1 X86.342 Y120.276 E.05989
G1 X83.966 Y90.847 E.92573
G1 X83.955 Y81.877 E.28125
G1 X84.334 Y80.4 E.04781
G1 E-3.5 F3600
;WIPE_START
G1 F7200
G1 X84.349 Y80.342 E-.02846
G1 X85.523 Y79.131 E-.80116
G1 X85.705 Y79.03 E-.09887
G1 X86.695 Y78.614 E-.51008
G1 X86.823 Y78.593 E-.06143
;WIPE_END
; printing object cosmotyl-holderright.stl id:0 copy 0
G1 X116.045 Y107.556 F9000
G1 E5 F2400
;TYPE:Perimeter
;WIDTH:0.419999
G1 F1200
G1 X116.166 Y107.385 E.00657
G1 X116.779 Y106.874 E.02502
G1 X117.504 Y106.539 E.02504
G1 X118.287 Y106.403 E.02492
G1 X120.418 Y106.395 E.06682
G1 X121.087 Y106.475 E.02113
G1 X121.836 Y106.751 E.02503
G1 X122.488 Y107.211 E.02502
G1 X122.999 Y107.824 E.02502
G1 X123.334 Y108.549 E.02504
G1 X123.47 Y109.332 E.02492
G1 X123.478 Y128.463 E.59984
G1 X123.398 Y129.132 E.02113
G1 X123.133 Y129.858 E.02423
G1 X122.667 Y130.527 E.02556
G1 X122.049 Y131.044 E.02526
G1 X121.324 Y131.379 E.02504
G1 X120.418 Y131.523 E.02876
G1 X118.41 Y131.523 E.06296
G1 X117.741 Y131.443 E.02113
G1 X116.992 Y131.167 E.02503
G1 X116.34 Y130.707 E.02502
G1 X115.829 Y130.094 E.02502
G1 X115.494 Y129.369 E.02504
G1 X115.358 Y128.586 E.02492
G1 X115.35 Y109.455 E.59984
G1 X115.43 Y108.786 E.02113
G1 X115.706 Y108.038 E.025
G1 X116.01 Y107.605 E.01659
G1 X116.01 Y107.605 F9000
G1 X116.328 Y107.804
G1 F1200
G1 X116.465 Y107.614 E.00734
G1 X117.009 Y107.173 E.02196
G1 X117.648 Y106.887 E.02195
G1 X118.336 Y106.777 E.02185
G1 X120.418 Y106.772 E.06528
G1 X121.037 Y106.849 E.01956
G1 X121.691 Y107.099 E.02195
G1 X122.259 Y107.51 E.02198
G1 X122.7 Y108.054 E.02196
G1 X122.986 Y108.693 E.02195
G1 X123.096 Y109.381 E.02185
G1 X123.101 Y128.463 E.5983
G1 X123.024 Y129.082 E.01956
G1 X122.785 Y129.715 E.02121
G1 X122.366 Y130.3 E.02256
G1 X121.819 Y130.745 E.02211
G1 X121.18 Y131.031 E.02195
G1 X120.418 Y131.146 E.02416
G1 X118.41 Y131.146 E.06296
G1 X117.791 Y131.069 E.01956
G1 X117.137 Y130.819 E.02195
G1 X116.569 Y130.408 E.02198
G1 X116.128 Y129.864 E.02196
G1 X115.842 Y129.225 E.02195
G1 X115.732 Y128.537 E.02185
G1 X115.727 Y109.455 E.5983
G1 X115.804 Y108.836 E.01956
G1 X116.054 Y108.182 E.02195
G1 X116.293 Y107.852 E.01278
G1 X116.293 Y107.852 F9000
G1 X116.609 Y108.05
;TYPE:External perimeter
G1 F1200
G1 X116.764 Y107.844 E.00808
G1 X117.238 Y107.472 E.01889
G1 X117.793 Y107.235 E.01892
G1 X118.41 Y107.149 E.01953
G1 X120.418 Y107.149 E.06296
G1 X120.988 Y107.223 E.01802
G1 X121.547 Y107.447 E.01888
G1 X122.029 Y107.809 E.0189
G1 X122.401 Y108.283 E.01889
G1 X122.638 Y108.838 E.01892
G1 X122.722 Y109.43 E.01875
G1 X122.724 Y128.463 E.59677
G1 X122.65 Y129.033 E.01802
G1 X122.436 Y129.571 E.01815
G1 X122.065 Y130.073 E.01957
G1 X121.59 Y130.446 E.01894
G1 X121.035 Y130.683 E.01892
G1 X120.418 Y130.769 E.01953
G1 X118.41 Y130.769 E.06296
G1 X117.84 Y130.695 E.01802
G1 X117.281 Y130.471 E.01888
G1 X116.799 Y130.109 E.0189
G1 X116.427 Y129.635 E.01889
G1 X116.19 Y129.08 E.01892
G1 X116.106 Y128.488 E.01875
G1 X116.104 Y109.455 E.59677
G1 X116.178 Y108.885 E.01802
G1 X116.402 Y108.326 E.01888
G1 X116.573 Y108.098 E.00894
G1 E-3.5 F3600
;WIPE_START
G1 F7200
G1 X116.609 Y108.05 E-.0285
G1 X116.764 Y107.844 E-.12246
G1 X117.238 Y107.472 E-.28621
G1 X117.793 Y107.235 E-.28666
G1 X118.41 Y107.149 E-.29591
G1 X119.421 Y107.149 E-.48026
;WIPE_END
G1 X126.583 Y98.038 F9000
G1 E5 F2400
G1 F1200
G1 X126.635 Y97.784 E.00813
G1 X126.92 Y97.359 E.01604
G1 X127.338 Y97.08 E.01576
G1 X127.838 Y96.979 E.01599
G1 X128.848 Y96.979 E.03167
G1 X129.418 Y97.053 E.01802
G1 X129.977 Y97.277 E.01888
G1 X130.459 Y97.639 E.0189
G1 X130.831 Y98.113 E.01889
G1 X131.068 Y98.668 E.01892
G1 X131.154 Y99.285 E.01953
G1 X131.154 Y138.633 E1.23373
G1 X131.08 Y139.203 E.01802
G1 X130.873 Y139.721 E.01749
G1 X130.525 Y140.204 E.01867
G1 X130.069 Y140.578 E.01849
G1 X129.465 Y140.853 E.02081
G1 X128.848 Y140.939 E.01953
G1 X127.837 Y140.939 E.0317
G1 X127.31 Y140.822 E.01693
G1 X126.894 Y140.527 E.01599
G1 X126.623 Y140.095 E.01599
G1 X126.534 Y139.635 E.01469
G1 X126.534 Y128.463 E.35029
G1 X126.534 Y98.283 E.94627
G1 X126.572 Y98.097 E.00595
G1 E-3.5 F3600
;WIPE_START
G1 F7200
G1 X126.583 Y98.038 E-.02851
G1 X126.635 Y97.784 E-.12315
G1 X126.92 Y97.359 E-.24306
G1 X127.338 Y97.08 E-.23872
G1 X127.838 Y96.979 E-.2423
G1 X128.848 Y96.979 E-.47975
G1 X129.15 Y97.018 E-.14451
;WIPE_END
G1 X108.587 Y96.291 F9000
G1 E5 F2400
;TYPE:Perimeter
G1 F1200
G1 X108.978 Y96.225 E.01243
G1 X109.988 Y96.225 E.03167
G1 X110.657 Y96.305 E.02113
G1 X110.894 Y96.369 E.0077
G1 X111.406 Y96.581 E.01738
G1 X111.619 Y96.704 E.00771
G1 X112.058 Y97.041 E.01735
G1 X112.394 Y97.426 E.01602
G1 X112.692 Y97.867 E.01669
G1 X112.904 Y98.379 E.01738
G1 X113.035 Y99.121 E.02362
G1 X113.048 Y100.029 E.02847
G1 X113.048 Y138.633 E1.2104
G1 X112.968 Y139.302 E.02113
G1 X112.692 Y140.051 E.02503
G1 X112.409 Y140.472 E.01591
G1 X112.061 Y140.875 E.01669
G1 X111.646 Y141.196 E.01645
G1 X110.903 Y141.546 E.02575
G1 X110.111 Y141.685 E.02521
G1 X108.978 Y141.693 E.03553
G1 X108.369 Y141.59 E.01937
G1 X108.031 Y141.449 E.01148
G1 X107.519 Y141.084 E.01972
G1 X107.164 Y140.582 E.01928
G1 X107.023 Y140.244 E.01148
G1 X106.92 Y139.635 E.01937
G1 X106.92 Y98.283 E1.29656
G1 X107.023 Y97.674 E.01937
G1 X107.164 Y97.336 E.01148
G1 X107.496 Y96.858 E.01825
G1 X108.031 Y96.469 E.02074
G1 X108.369 Y96.328 E.01148
G1 X108.527 Y96.301 E.00503
G1 X108.527 Y96.301 F9000
G1 X108.66 Y96.659
G1 F1200
G1 X108.978 Y96.602 E.01013
G1 X109.988 Y96.602 E.03167
G1 X110.607 Y96.679 E.01956
G1 X111.261 Y96.929 E.02195
G1 X111.829 Y97.34 E.02198
G1 X112.27 Y97.884 E.02196
G1 X112.556 Y98.523 E.02195
G1 X112.661 Y99.171 E.02058
G1 X112.671 Y138.633 E1.2373
G1 X112.594 Y139.252 E.01956
G1 X112.344 Y139.906 E.02195
G1 X111.933 Y140.474 E.02198
G1 X111.416 Y140.897 E.02094
G1 X110.755 Y141.199 E.02279
G1 X110.062 Y141.311 E.02201
G1 X108.978 Y141.316 E.03399
G1 X108.444 Y141.22 E.01701
G1 X108.24 Y141.136 E.00692
G1 X107.788 Y140.819 E.01731
G1 X107.477 Y140.373 E.01705
G1 X107.393 Y140.169 E.00692
G1 X107.297 Y139.635 E.01701
G1 X107.297 Y98.283 E1.29656
G1 X107.393 Y97.748 E.01704
G1 X107.477 Y97.545 E.00689
G1 X107.774 Y97.113 E.01644
G1 X108.24 Y96.782 E.01792
G1 X108.444 Y96.698 E.00692
G1 X108.601 Y96.67 E.005
G1 X108.601 Y96.67 F9000
G1 X108.733 Y97.029
;TYPE:External perimeter
G1 F1200
G1 X108.978 Y96.979 E.00784
G1 X109.988 Y96.979 E.03167
G1 X110.558 Y97.053 E.01802
G1 X111.117 Y97.277 E.01888
G1 X111.599 Y97.639 E.0189
G1 X111.971 Y98.113 E.01889
G1 X112.208 Y98.668 E.01892
G1 X112.287 Y99.22 E.01748
G1 X112.294 Y138.633 E1.23576
G1 X112.22 Y139.203 E.01802
G1 X111.996 Y139.762 E.01888
G1 X111.634 Y140.244 E.0189
G1 X111.185 Y140.599 E.01795
G1 X110.607 Y140.852 E.01978
G1 X109.988 Y140.939 E.0196
G1 X108.978 Y140.939 E.03167
G1 X108.45 Y140.822 E.01696
G1 X108.034 Y140.527 E.01599
G1 X107.763 Y140.095 E.01599
G1 X107.674 Y139.635 E.01469
G1 X107.674 Y98.283 E1.29656
G1 X107.774 Y97.787 E.01586
G1 X108.052 Y97.368 E.01577
G1 X108.477 Y97.081 E.01608
G1 X108.675 Y97.041 E.00633
G1 E-3.5 F3600
;WIPE_START
G1 F7200
G1 X108.733 Y97.029 E-.02813
G1 X108.978 Y96.979 E-.11877
G1 X109.988 Y96.979 E-.47975
G1 X110.558 Y97.053 E-.27302
G1 X111.117 Y97.277 E-.28605
G1 X111.599 Y97.639 E-.28633
G1 X111.635 Y97.685 E-.02795
;WIPE_END
G1 X95.149 Y121.84 F9000
G1 E5 F2400
;TYPE:Perimeter
G1 F1200
G1 X95.345 Y121.957 E.00716
G1 X95.828 Y122.501 E.02281
G1 X96.114 Y123.14 E.02195
G1 X96.186 Y123.623 E.01531
G1 X96.207 Y123.967 E.01081
G1 X96.066 Y124.602 E.02039
G1 X95.725 Y125.228 E.02235
G1 X95.192 Y125.743 E.02324
G1 X94.54 Y126.065 E.0228
G1 X93.821 Y126.174 E.0228
G1 X93.102 Y126.062 E.02282
G1 X92.451 Y125.738 E.0228
G1 X91.928 Y125.232 E.02282
;WIDTH:0.464837
G1 X91.735 Y124.922 E.01281
;WIDTH:0.509675
G1 X91.542 Y124.612 E.01417
;WIDTH:0.530117
G1 X91.475 Y124.436 E.00763
;WIDTH:0.538007
G1 X91.387 Y123.887 E.02289
G1 X91.434 Y123.643 E.01023
;WIDTH:0.498671
G1 X91.482 Y123.4 E.00939
;WIDTH:0.459335
G1 X91.53 Y123.156 E.00861
;WIDTH:0.419999
G1 X91.829 Y122.493 E.0228
G1 X92.195 Y122.074 E.01744
G1 X92.451 Y121.846 E.01075
G1 X92.94 Y121.58 E.01745
G1 X93.648 Y121.416 E.02279
G1 X94.184 Y121.437 E.01682
G1 X94.721 Y121.584 E.01746
G1 X95.098 Y121.809 E.01377
G1 X95.098 Y121.809 F9000
G1 X94.923 Y122.137
;TYPE:External perimeter
G1 F1200
G1 X95.14 Y122.274 E.00805
G1 X95.537 Y122.741 E.01922
G1 X95.764 Y123.281 E.01837
G1 X95.83 Y123.943 E.02086
G1 X95.699 Y124.516 E.01843
G1 X95.4 Y125.035 E.01878
G1 X94.941 Y125.462 E.01966
G1 X94.386 Y125.721 E.0192
G1 X93.777 Y125.8 E.01925
G1 X93.174 Y125.692 E.01921
G1 X92.631 Y125.406 E.01924
G1 X92.2 Y124.971 E.0192
G1 X91.92 Y124.425 E.01924
G1 X91.817 Y123.821 E.01921
G1 X91.902 Y123.213 E.01925
G1 X92.167 Y122.66 E.01923
G1 X92.585 Y122.212 E.01921
G1 X93.12 Y121.912 E.01923
G1 X93.72 Y121.786 E.01922
G1 X94.085 Y121.8 E.01145
G1 X94.621 Y121.948 E.01743
G1 X94.872 Y122.105 E.00928
G1 E-3.5 F3600
;WIPE_START
G1 F7200
G1 X94.923 Y122.137 E-.0286
G1 X95.14 Y122.274 E-.1219
G1 X95.537 Y122.741 E-.29115
G1 X95.764 Y123.281 E-.27824
G1 X95.83 Y123.943 E-.31601
G1 X95.699 Y124.516 E-.2792
G1 X95.505 Y124.853 E-.1849
;WIPE_END
G1 X91.127 Y89.475 F9000
G1 E5 F2400
G1 F1200
G1 X90.483 Y89.47 E.02019
G1 X89.933 Y89.362 E.01757
G1 X89.305 Y89.109 E.02123
G1 X88.737 Y88.726 E.02148
G1 X88.266 Y88.23 E.02145
G1 X87.971 Y87.749 E.01769
;WIDTH:0.43115
G1 X87.79 Y87.232 E.01768
G1 X87.721 Y86.68 E.01796
;WIDTH:0.411067
G1 X87.717 Y85.792 E.02718
;WIDTH:0.447148
G1 X87.837 Y85.013 E.02649
G1 X88.087 Y84.505 E.01903
;WIDTH:0.419999
G1 X88.266 Y84.236 E.01013
G1 X88.706 Y83.767 E.02016
G1 X89.269 Y83.376 E.02149
G1 X89.9 Y83.115 E.02141
G1 X90.709 Y82.977 E.02573
G1 X91.166 Y82.991 E.01434
G1 X91.798 Y83.119 E.02022
G1 X92.22 Y83.282 E.01418
G1 X92.774 Y83.613 E.02023
G1 X93.275 Y84.077 E.02141
G1 X93.609 Y84.524 E.0175
G1 X93.905 Y85.136 E.02132
G1 X94.066 Y85.802 E.02148
G1 X94.082 Y86.484 E.02139
G1 X93.987 Y87.06 E.0183
G1 X93.76 Y87.673 E.0205
G1 X93.394 Y88.253 E.0215
G1 X92.915 Y88.739 E.0214
G1 X92.456 Y89.059 E.01754
G1 X91.836 Y89.335 E.02128
G1 X91.186 Y89.471 E.02082
G1 E-3.5 F3600
;WIPE_START
G1 F7200
G1 X91.127 Y89.475 E-.02809
G1 X90.483 Y89.47 E-.30591
G1 X89.933 Y89.362 E-.26624
G1 X89.305 Y89.109 E-.3216
G1 X88.737 Y88.726 E-.32541
G1 X88.371 Y88.34 E-.25275
;WIPE_END
G1 X140.046 Y149.078 F9000
G1 E5 F2400
;WIDTH:0.524934
G1 F1200
G1 X139.73 Y149.099 E.01269
;WIDTH:0.478906
G1 X139.415 Y149.12 E.01144
;WIDTH:0.455698
G1 X138.872 Y149.105 E.01864
;WIDTH:0.46078
G1 X138.835 Y149.102 E.00129
G1 E-3.5 F3600
;WIPE_START
G1 F7200
G1 X140.046 Y149.078 E-.57534
G1 X139.73 Y149.099 E-.15043
G1 X139.415 Y149.12 E-.14996
G1 X138.872 Y149.105 E-.25802
G1 X138.835 Y149.102 E-.01763
;WIPE_END
G1 E-.34862 F3600
G1 X89.054 Y82.646 F9000
G1 E5 F2400
;TYPE:Perimeter
;WIDTH:0.417525
G1 F1200
G1 X88.844 Y82.755 E.00737
G1 X88.21 Y83.207 E.02425
G1 X88.211 Y82.652 E.01729
G1 X88.994 Y82.647 E.02439
G1 E-3.5 F3600
;WIPE_START
G1 F7200
G1 X89.054 Y82.646 E-.0285
G1 X88.844 Y82.755 E-.11239
G1 X88.21 Y83.207 E-.36985
G1 X88.211 Y82.652 E-.26363
G1 X88.994 Y82.647 E-.37193
;WIPE_END
G1 E-.3537 F3600
G1 X88.21 Y89.26 F9000
G1 E5 F2400
;WIDTH:0.417468
G1 F1200
G1 X88.504 Y89.479 E.01142
G1 X89.021 Y89.807 E.01907
G1 X88.211 Y89.815 E.02523
G1 X88.21 Y89.32 E.01542
G1 E-3.5 F3600
;WIPE_START
G1 F7200
G1 X88.21 Y89.26 E-.0285
G1 X88.504 Y89.479 E-.17414
G1 X89.021 Y89.807 E-.29083
G1 X88.211 Y89.815 E-.38477
G1 X88.21 Y89.32 E-.23513
;WIPE_END
G1 E-.38663 F3600
G1 X142.459 Y148.333 F9000
G1 E5 F2400
;WIDTH:0.348513
G1 F1200
G1 X142.595 Y148.144 E.00592
G1 X142.902 Y147.591 E.01607
G1 X142.902 Y148.334 E.01888
G1 X142.519 Y148.333 E.00973
G1 E-3.5 F3600
;WIPE_START
G1 F7200
G1 X142.459 Y148.333 E-.0285
G1 X142.595 Y148.144 E-.1106
G1 X142.902 Y147.591 E-.30044
G1 X142.902 Y148.334 E-.35292
G1 X142.519 Y148.333 E-.18193
;WIPE_END
G1 E-.52561 F3600
G1 X142.796 Y143.915 F9000
G1 E5 F2400
;WIDTH:0.559663
G1 F1200
G1 X142.527 Y143.492 E.02154
;WIDTH:0.564965
G1 X142.153 Y143.064 E.02467
G1 X141.752 Y142.737 E.02246
;WIDTH:0.552338
G1 X141.327 Y142.439 E.02199
G1 X142.123 Y142.474 E.03375
G1 X142.361 Y142.564 E.01078
;WIDTH:0.559663
G1 X142.652 Y142.854 E.01765
G1 X142.745 Y143.056 E.00956
G1 X142.796 Y143.39 E.01452
G1 X142.796 Y143.855 E.01998
G1 E-3.5 F3600
;WIPE_START
G1 F7200
G1 X142.796 Y143.915 E-.0285
G1 X142.527 Y143.492 E-.23811
G1 X142.153 Y143.064 E-.26998
G1 X141.752 Y142.737 E-.24578
G1 X141.327 Y142.439 E-.24656
G1 X142.123 Y142.474 E-.37847
G1 X142.305 Y142.543 E-.0926
;WIPE_END
G1 X137.49 Y142.373 F9000
G1 E5 F2400
;WIDTH:0.419999
G1 F1200
G1 X136.783 Y142.821 E.02624
G1 X136.182 Y143.415 E.02649
G1 X135.818 Y143.944 E.02013
G1 X135.563 Y144.474 E.01844
G1 X135.41 Y144.961 E.01601
G1 X135.303 Y145.456 E.01588
G1 X134.905 Y145.359 E.01284
G1 X114.664 Y145.233 E.63465
G1 X99.428 Y144.37 E.47848
G1 X99.428 Y130.438 E.43683
G1 X99.284 Y129.532 E.02876
G1 X98.949 Y128.807 E.02504
G1 X98.612 Y128.368 E.01735
G1 X98.438 Y128.194 E.00772
G1 X97.999 Y127.857 E.01735
G1 X97.786 Y127.733 E.00773
G1 X97.274 Y127.522 E.01736
G1 X97.023 Y127.456 E.00814
G1 X96.368 Y127.378 E.02068
G1 X91.868 Y127.378 E.14109
G1 X91.814 Y127.197 E.00592
G1 X91.439 Y125.155 E.0651
G1 X91.656 Y125.494 E.01262
G1 X92.042 Y125.894 E.01743
G1 X92.271 Y126.069 E.00904
G1 X92.626 Y126.262 E.01267
G1 X93.03 Y126.432 E.01374
G1 X93.576 Y126.538 E.01744
G1 X93.864 Y126.549 E.00904
G1 X94.417 Y126.485 E.01745
G1 X94.694 Y126.409 E.00901
G1 X95.202 Y126.181 E.01746
G1 X95.443 Y126.025 E.009
G1 X95.749 Y125.752 E.01286
G1 X96.041 Y125.433 E.01356
G1 X96.326 Y124.955 E.01745
G1 X96.433 Y124.688 E.00902
G1 X96.56 Y124.146 E.01745
